MONITOR LUTS/APPLE LOG_Neutral_+1.cube
# Generated by CineMatch
# Date: 24/10/123
# Time: 17:19:16
TITLE "APPLE LOG_Neutral_+1.cube"
LUT_3D_SIZE 5
0 0 0
0.275674 0 0
0.942258 0 0
1 0 0
1 0 0
0 0.209139 0
0.198801 0.191049 0
0.935195 0.00367579 0
1 0 0
1 0 0
0 0.795126 0
0 0.792423 0
0.748703 0.727284 0
1 0.0650887 0
1 0 0
0 0.999807 0
0 0.999796 0
0 0.999688 0
0.944282 0.931984 0
1 0.529434 0
0 1 0
0 1 0
0 1 0
0.00745695 1 0
1 1 0
0 0 0.207167
0.267037 0 0.204587
0.940916 0 0.138073
1 0 9.13203e-05
1 0 0
0 0.207954 0.19255
0.187794 0.189798 0.189831
0.933824 0.00345801 0.125763
1 0 3.30675e-05
1 0 0
0 0.79488 0.0142249
0 0.79218 0.0129686
0.746598 0.727539 0.00369347
1 0.0649099 0
1 0 0
0 0.999806 0
0 0.999795 0
0 0.999688 0
0.944113 0.932083 0
1 0.529394 0
0 1 0
0 1 0
0 1 0
0.00725892 1 0
1 1 0
0 0 0.859834
0.150964 0 0.857523
0.925796 0 0.776598
1 0 0.278095
1 0 0.11809
0 0.176175 0.850245
0.0527171 0.158595 0.849937
0.917779 0.00182598 0.77905
1 0 0.276986
1 0 0.116384
0 0.780961 0.738963
0 0.778039 0.739776
0.715254 0.719896 0.720251
1 0.0629715 0.263884
1 0 0.0991836
0 0.999644 0.116852
0 0.999633 0.116445
0 0.999528 0.112328
0.942216 0.932753 0.0646382
1 0.528985 0.00220997
0 1 0
0 1 0
0 1 0
0.00537295 1 0
1 1 0
0 0 1
0 0 1
0.398789 0 1
1 0 0.965375
1 0 0.705101
0 0.013468 1
0 0.00879939 1
0.386039 0 1
1 0 0.965957
1 0 0.704651
0 0.385341 1
0 0.382843 1
0.219947 0.355174 1
1 0.0484722 0.970835
1 0 0.700231
0 0.985017 0.944809
0 0.984882 0.945044
0 0.98354 0.947354
0.911874 0.922298 0.921437
1 0.521764 0.626886
0 1 0.493675
0 1 0.493592
0 1 0.492774
0 1 0.486541
1 1 0.442287
0 0 1
0 0 1
0.00232453 0 1
0.848695 0 1
1 0 1
0 0 1
0 0 1
0.00104659 0 1
0.846774 0 1
1 0 1
0 0.174936 1
0 0.173173 1
0 0.155132 1
0.826675 0.00739433 1
1 0 1
0 0.70176 1
0 0.701304 1
0 0.696817 1
0.582024 0.647608 1
1 0.50367 1
0 1 1
0 1 1
0 1 1
0 1 1
0.999937 1 1
