MONITOR LUTS/APPLE LOG_WARM_-1.cube
# Generated by CineMatch
# Date: 24/10/123
# Time: 17:21:49
TITLE "APPLE LOG_WARM_-1.cube"
LUT_3D_SIZE 33
0 0 0
0 0 0
3.53398e-05 0 0
0.00103565 0 0
0.00697587 0 0
0.0211982 0 0
0.0423796 0 0
0.0662729 0 0
0.0964405 0 0
0.133409 0 0
0.173713 0 0
0.218386 0 0
0.268138 0 0
0.324079 0 0
0.387123 0 0
0.458663 0 0
0.539362 0 0
0.629348 0 0
0.71687 0 0
0.794678 0 0
0.870322 0 0
0.932318 0 0
0.978153 0 0
0.998655 0 0
1 0 0
1 0 0
1 0 0
1 0 0
1 0 0
1 0 0
1 0 0
1 0 0
1 0 0
0 0 0
0 0 0
3.53398e-05 0 0
0.00103565 0 0
0.00697587 0 0
0.0211982 0 0
0.0423796 0 0
0.0662729 0 0
0.0964405 0 0
0.133409 0 0
0.173713 0 0
0.218386 0 0
0.268138 0 0
0.324079 0 0
0.387123 0 0
0.458663 0 0
0.539362 0 0
0.629348 0 0
0.71687 0 0
0.794678 0 0
0.870322 0 0
0.932318 0 0
0.978153 0 0
0.998655 0 0
1 0 0
1 0 0
1 0 0
1 0 0
1 0 0
1 0 0
1 0 0
1 0 0
1 0 0
0 3.20859e-05 0
0 3.20859e-05 0
3.51993e-05 3.20859e-05 0
0.00103124 3.13847e-05 0
0.00695661 2.74316e-05 0
0.0211587 2.05432e-05 0
0.0423255 1.23506e-05 0
0.0662151 5.62656e-06 0
0.0963873 8.48557e-07 0
0.133364 0 0
0.173675 0 0
0.218353 0 0
0.26811 0 0
0.324055 0 0
0.387101 0 0
0.458645 0 0
0.539346 0 0
0.629334 0 0
0.71686 0 0
0.794671 0 0
0.870317 0 0
0.932315 0 0
0.978152 0 0
0.998655 0 0
1 0 0
1 0 0
1 0 0
1 0 0
1 0 0
1 0 0
1 0 0
1 0 0
1 0 0
0 0.000712625 0
0 0.000712625 0
3.18545e-05 0.000712032 0
0.000954307 0.000696369 0
0.00661765 0.000631522 0
0.0204552 0.00051471 0
0.041347 0.000374464 0
0.0651582 0.000254822 0
0.0954075 0.000154434 0
0.132534 0.000102042 0
0.17297 6.65885e-05 0
0.217746 2.8205e-05 0
0.267585 3.66577e-06 0
0.323596 0 0
0.386699 0 0
0.458293 0 0
0.539037 0 0
0.629072 0 0
0.71668 0 0
0.794542 0 0
0.870224 0 0
0.932261 0 0
0.978127 0 0
0.998653 0 0
1 0 0
1 0 0
1 0 0
1 0 0
1 0 0
1 0 0
1 0 0
1 0 0
1 0 0
0 0.00404466 0
0 0.00404466 0
2.16745e-05 0.00404236 0
0.000717921 0.00398709 0
0.00550761 0.00376371 0
0.0180391 0.0033594 0
0.0378615 0.00286738 0
0.0612836 0.00240377 0
0.0917485 0.00189867 0
0.129428 0.00141977 0
0.170349 0.000989867 0
0.215495 0.000519711 0
0.265634 0.000175831 0
0.321895 4.95057e-05 0
0.385213 4.07813e-06 0
0.45699 0 0
0.537893 0 0
0.628103 0 0
0.716013 0 0
0.794065 0 0
0.869879 0 0
0.932066 0 0
0.978031 0 0
0.998643 0 0
1 0 0
1 0 0
1 0 0
1 0 0
1 0 0
1 0 0
1 0 0
1 0 0
1 0 0
0 0.0117356 0
0 0.0117356 0
1.01192e-05 0.0117307 0
0.000420305 0.0116199 0
0.00388019 0.0111742 0
0.0142192 0.0103673 0
0.0320617 0.00937911 0
0.0546181 0.0084102 0
0.0853227 0.00725114 0
0.123962 0.00590711 0
0.165755 0.00454599 0
0.21156 0.00303267 0
0.262231 0.00163286 0
0.318933 0.000668178 0
0.382628 0.000137859 0
0.454724 1.50381e-05 0
0.535905 0 0
0.626419 0 0
0.714854 0 0
0.793236 0 0
0.869279 0 0
0.931725 0 0
0.977866 0 0
0.998627 0 0
1 0 0
1 0 0
1 0 0
1 0 0
1 0 0
1 0 0
1 0 0
1 0 0
1 0 0
0 0.0236081 0
0 0.0236081 0
2.40631e-06 0.0236011 0
0.000187789 0.0234398 0
0.00234365 0.0227935 0
0.0102083 0.0216245 0
0.025533 0.0201887 0
0.046723 0.0187472 0
0.0774409 0.0169332 0
0.117218 0.0145881 0
0.160129 0.0120046 0
0.206761 0.00902813 0
0.258092 0.00590766 0
0.315338 0.00317992 0
0.379493 0.00115845 0
0.451978 0.000237575 0
0.533499 1.66611e-05 0
0.624382 0 0
0.713453 0 0
0.792232 0 0
0.868554 0 0
0.931313 0 0
0.977667 0 0
0.998609 0 0
1 0 0
1 0 0
1 0 0
1 0 0
1 0 0
1 0 0
1 0 0
1 0 0
1 0 0
0 0.0383513 0
0 0.0383513 0
0 0.0383428 0
7.04108e-05 0.0381491 0
0.00125973 0.0373724 0
0.00688959 0.0359665 0
0.0195687 0.0342368 0
0.0389738 0.0324837 0
0.0692774 0.0302352 0
0.110144 0.0271458 0
0.15427 0.0235107 0
0.201795 0.0191447 0
0.253824 0.0141398 0
0.311642 0.0090325 0
0.376275 0.00445441 0
0.449164 0.00146675 0
0.531038 0.000241455 0
0.622302 8.46619e-06 0
0.712023 0 0
0.791206 0 0
0.867811 0 0
0.930893 0 0
0.977463 0 0
0.99859 0 0
1 0 0
1 0 0
1 0 0
1 0 0
1 0 0
1 0 0
1 0 0
1 0 0
1 0 0
0 0.0592099 0
0 0.0592099 0
0 0.0592005 0
1.90041e-05 0.0589928 0
0.000503891 0.0581611 0
0.00386467 0.0566536 0
0.0132616 0.0547977 0
0.0298461 0.0529102 0
0.0588114 0.0504732 0
0.100811 0.0470083 0
0.146598 0.042688 0
0.195353 0.0372161 0
0.24832 0.030476 0
0.306892 0.0226314 0
0.37215 0.0142078 0
0.445565 0.00675733 0
0.527897 0.00199702 0
0.61965 0.000251527 0
0.710201 8.46863e-06 0
0.789896 0 0
0.866861 0 0
0.930355 0 0
0.977204 0 0
0.998565 0 0
1 0 0
1 0 0
1 0 0
1 0 0
1 0 0
1 0 0
1 0 0
1 0 0
1 0 0
0 0.0880028 0
0 0.0880028 0
0 0.0879942 0
0 0.0878002 0
0.00010318 0.0870201 0
0.00143895 0.0856056 0
0.00685797 0.0838646 0
0.0189354 0.0820923 0
0.0443162 0.0797972 0
0.0869196 0.076495 0
0.135176 0.0722419 0
0.1859 0.0666176 0
0.240318 0.0593727 0
0.300024 0.0500881 0
0.366208 0.0385566 0
0.440397 0.0252625 0
0.523396 0.0126083 0
0.615851 0.00400659 0
0.707588 0.000595126 0
0.788023 2.1807e-05 0
0.865501 0 0
0.929585 0 0
0.976823 0 0
0.998528 0 0
1 0 0
1 0 0
1 0 0
1 0 0
1 0 0
1 0 0
1 0 0
1 0 0
1 0 0
0 0.120719 0
0 0.120719 0
0 0.120711 0
0 0.120543 0
1.18181e-05 0.11987 0
0.000296591 0.11865 0
0.00233944 0.117151 0
0.00905301 0.115626 0
0.0277845 0.113646 0
0.0684391 0.110779 0
0.119505 0.107081 0
0.17319 0.102155 0
0.2297 0.0956965 0
0.290987 0.0871431 0
0.35843 0.0757989 0
0.433656 0.0606971 0
0.517538 0.0419848 0
0.610868 0.0222083 0
0.703996 0.00722632 0
0.785503 0.000981487 0
0.863734 2.21184e-05 0
0.928579 0 0
0.976286 0 0
0.998466 0 0
1 0 0
1 0 0
1 0 0
1 0 0
1 0 0
1 0 0
1 0 0
1 0 0
1 0 0
0 0.156937 0
0 0.156937 0
0 0.15693 0
0 0.156787 0
0 0.156214 0
2.04758e-05 0.155175 0
0.000401105 0.153898 0
0.00276118 0.152598 0
0.0127977 0.150909 0
0.0456837 0.148466 0
0.0975162 0.145339 0
0.155651 0.141193 0
0.215384 0.135767 0
0.278953 0.128598 0
0.348154 0.119038 0
0.424795 0.105926 0
0.509864 0.0880248 0
0.604237 0.0641579 0
0.698595 0.035856 0
0.781623 0.0121804 0
0.861279 0.00184172 0
0.92722 5.16075e-05 0
0.975551 0 0
0.998373 0 0
1 0 0
1 0 0
1 0 0
1 0 0
1 0 0
1 0 0
1 0 0
1 0 0
1 0 0
0 0.197041 0
0 0.197041 0
0 0.197035 0
0 0.196911 0
0 0.196413 0
0 0.19551 0
1.87292e-05 0.1944 0
0.000341451 0.193276 0
0.00324907 0.191827 0
0.0226109 0.189746 0
0.0681036 0.187071 0
0.131277 0.183536 0
0.196064 0.178953 0
0.263019 0.172948 0
0.334693 0.165038 0
0.413267 0.154332 0
0.499927 0.139787 0
0.595621 0.119435 0
0.691111 0.0889189 0
0.775757 0.0493683 0
0.857506 0.0168503 0
0.925242 0.0024959 0
0.974551 8.38248e-05 0
0.998199 0 0
1 0 0
1 0 0
1 0 0
1 0 0
1 0 0
1 0 0
1 0 0
1 0 0
1 0 0
0 0.242002 0
0 0.242002 0
0 0.241997 0
0 0.241889 0
0 0.241455 0
0 0.24067 0
0 0.239704 0
4.16176e-06 0.238723 0
0.00025552 0.237459 0
0.00654134 0.235652 0
0.0345072 0.233339 0
0.0967435 0.230291 0
0.168893 0.226355 0
0.241364 0.221224 0
0.316707 0.214517 0
0.398011 0.205562 0
0.486867 0.193623 0
0.584347 0.177297 0
0.681268 0.151596 0
0.767641 0.112229 0
0.85174 0.0649216 0
0.921995 0.0230232 0
0.972975 0.00317942 0
0.997825 5.98431e-05 0
1 0 0
1 0 0
1 0 0
1 0 0
1 0 0
1 0 0
1 0 0
1 0 0
1 0 0
0 0.292905 0
0 0.292905 0
0 0.2929 0
0 0.292806 0
0 0.292427 0
0 0.29174 0
0 0.290893 0
0 0.290032 0
4.35687e-06 0.288922 0
0.000876845 0.287342 0
0.00994554 0.285329 0
0.053796 0.282678 0
0.128709 0.279261 0
0.210698 0.274825 0
0.292047 0.269049 0
0.377431 0.2614 0
0.469429 0.251312 0
0.5694 0.237658 0
0.668293 0.215249 0
0.756902 0.180285 0
0.843767 0.136575 0
0.916725 0.0823591 0
0.970031 0.0306804 0
0.997081 0.00474294 0
1 0.000106209 0
1 0 0
1 0 0
1 0 0
1 0 0
1 0 0
1 0 0
1 0 0
1 0 0
0 0.350484 0
0 0.350484 0
0 0.35048 0
0 0.350397 0
0 0.350062 0
0 0.349456 0
0 0.34871 0
0 0.347955 0
0 0.346985 0
2.42249e-05 0.345604 0
0.00101493 0.343842 0
0.017862 0.34152 0
0.075446 0.338541 0
0.16536 0.334683 0
0.257663 0.329677 0
0.349519 0.323078 0
0.44614 0.314435 0
0.549636 0.30273 0
0.651271 0.28215 0
0.742827 0.249256 0
0.833202 0.21029 0
0.909393 0.160884 0
0.965225 0.0981606 0
0.995592 0.0376946 0
1 0.00605653 0
1 0.000147381 0
1 0 0
1 0 0
1 0 0
1 0 0
1 0 0
1 0 0
1 0 0
0 0.415532 0
0 0.415532 0
0 0.415529 0
0 0.415456 0
0 0.415163 0
0 0.414631 0
0 0.413978 0
0 0.413316 0
0 0.412466 0
0 0.411253 0
0 0.409706 0
0.00225727 0.407672 0
0.0267563 0.405065 0
0.101015 0.401697 0
0.20706 0.397337 0
0.31073 0.391609 0
0.414623 0.384142 0
0.523301 0.373936 0
0.628845 0.354252 0
0.724327 0.321863 0
0.819117 0.284967 0
0.899557 0.239858 0
0.958582 0.182533 0
0.99336 0.112233 0
1 0.043373 0
1 0.00694434 0
1 0.000163416 0
1 0 0
1 0 0
1 0 0
1 0 0
1 0 0
1 0 0
0 0.489063 0
0 0.489063 0
0 0.48906 0
0 0.488997 0
0 0.488744 0
0 0.488285 0
0 0.48772 0
0 0.487148 0
0 0.486413 0
0 0.485365 0
0 0.48403 0
2.30658e-05 0.48228 0
0.00378441 0.480037 0
0.0367472 0.477129 0
0.131063 0.473339 0
0.25365 0.468339 0
0.370672 0.461809 0
0.487457 0.452723 0
0.59887 0.433273 0
0.699805 0.400461 0
0.800135 0.364112 0
0.886198 0.320317 0
0.949697 0.266363 0
0.990137 0.201797 0
0.999931 0.123874 0
1 0.0479361 0
1 0.00759756 0
1 0.000190702 0
1 0 0
1 0 0
1 0 0
1 0 0
1 0 0
0 0.565413 0
0 0.565413 0
0 0.565412 0
0 0.565367 0
0 0.565186 0
0 0.564858 0
0 0.564456 0
0 0.564047 0
0 0.563523 0
0 0.562775 0
0 0.561825 0
0 0.560581 0
7.91085e-05 0.558986 0
0.00519661 0.556853 0
0.0486148 0.553863 0
0.166026 0.549524 0
0.303771 0.543382 0
0.433854 0.534835 0
0.555813 0.517332 0
0.666754 0.486094 0
0.774503 0.449714 0
0.867892 0.405593 0
0.937506 0.351929 0
0.984416 0.289702 0
0.99945 0.217264 0
1 0.133647 0
1 0.051873 0
1 0.00801524 0
1 0.000188634 0
1 2.64893e-08 0
1 0 0
1 0 0
1 0 0
0 0.633022 0
0 0.633022 0
0 0.633021 0
0 0.632989 0
0 0.632861 0
0 0.632628 0
0 0.632343 0
0 0.632053 0
0 0.631682 0
0 0.631153 0
0 0.630481 0
0 0.6296 0
0 0.628471 0
0.000112428 0.626989 0
0.00608066 0.624962 0
0.0640156 0.621716 0
0.197534 0.616419 0
0.348388 0.609007 0
0.488313 0.597616 0
0.618714 0.576127 0
0.739454 0.543014 0
0.842527 0.497769 0
0.920628 0.442754 0
0.975136 0.379663 0
0.998121 0.308341 0
1 0.230151 0
1 0.142027 0
1 0.0548051 0
1 0.00803403 0
1 0.000163423 0
1 2.12708e-07 0
1 0 0
1 0 0
0 0.703142 0
0 0.703142 0
0 0.703141 0
0 0.703112 0
0 0.702996 0
0 0.702786 0
0 0.702528 0
0 0.702266 0
0 0.701931 0
0 0.701453 0
0 0.700846 0
0 0.700051 0
0 0.699033 0
0 0.697723 0
0 0.696039 0
0.00833464 0.693742 0
0.0771205 0.690108 0
0.227552 0.684424 0
0.393049 0.676606 0
0.546151 0.664882 0
0.68809 0.641929 0
0.80663 0.598411 0
0.896915 0.541264 0
0.96063 0.475522 0
0.994194 0.402074 0
0.999989 0.324193 0
1 0.241417 0
1 0.148887 0
1 0.0570626 0
1 0.00795805 0
1 0.000162998 0
1 2.50488e-07 0
1 0 0
0 0.773551 0
0 0.773551 0
0 0.773551 0
0 0.773529 0
0 0.773444 0
0 0.77329 0
0 0.773099 0
0 0.772906 0
0 0.772659 0
0 0.772306 0
0 0.771859 0
0 0.771273 0
0 0.770523 0
0 0.769558 0
0 0.768317 0
0 0.766699 0
0.0104207 0.764519 0
0.0906828 0.760916 0
0.259818 0.754749 0
0.440678 0.745991 0
0.605062 0.732251 0
0.750309 0.701485 0
0.862561 0.647993 0
0.938764 0.578811 0
0.985183 0.501455 0
0.999466 0.420685 0
1 0.337574 0
1 0.24999 0
1 0.154138 0
1 0.0587564 0
1 0.0080248 0
1 0.000138827 0
1 1.2854e-07 0
0 0.833487 0
0 0.833487 0
0 0.833486 0
0 0.833473 0
0 0.833419 0
0 0.83332 0
0 0.833199 0
0 0.833076 0
0 0.832919 0
0 0.832695 0
0 0.832411 0
0 0.832038 0
0 0.831559 0
0 0.830945 0
0 0.830154 0
0 0.82912 0
3.71398e-05 0.827786 0
0.0123358 0.825884 0
0.102255 0.822227 0
0.288427 0.81561 0
0.482463 0.806131 0
0.656691 0.790989 0
0.805207 0.756148 0
0.906076 0.690721 0
0.967466 0.608789 0
0.996151 0.523335 0
1 0.43669 0
1 0.347964 0
1 0.256869 0
1 0.158706 0
1 0.0607663 0
1 0.00827424 0
1 0.000127332 0
0 0.882103 0
0 0.882103 0
0 0.882102 0
0 0.882095 0
0 0.882063 0
0 0.882006 0
0 0.881936 0
0 0.881864 0
0 0.881773 0
0 0.881643 0
0 0.881477 0
0 0.88126 0
0 0.880983 0
0 0.880627 0
0 0.880169 0
0 0.87957 0
0 0.878797 0
0.000115946 0.877799 0
0.0142386 0.87632 0
0.113227 0.873014 0
0.314105 0.866497 0
0.520015 0.856916 0
0.701621 0.840648 0
0.847868 0.800234 0
0.937109 0.724492 0
0.985143 0.634181 0
0.999496 0.542213 0
1 0.449201 0
1 0.356495 0
1 0.262812 0
1 0.162362 0
1 0.0628887 0
1 0.00891621 0
0 0.916399 0
0 0.916399 0
0 0.916399 0
0 0.916394 0
0 0.916377 0
0 0.916346 0
0 0.916309 0
0 0.91627 0
0 0.916221 0
0 0.916151 0
0 0.916063 0
0 0.915947 0
0 0.915799 0
0 0.915607 0
0 0.915363 0
0 0.915043 0
0 0.914631 0
0 0.9141 0
0.000201277 0.913411 0
0.0161077 0.912282 0
0.12267 0.909267 0
0.335567 0.902936 0
0.550352 0.893544 0
0.737041 0.876806 0
0.879263 0.832945 0
0.960098 0.752303 0
0.994724 0.655568 0
0.999971 0.556552 0
1 0.459147 0
1 0.363492 0
1 0.267172 0
1 0.16549 0
1 0.0654992 0
0 0.942423 0
0 0.942423 0
0 0.942423 0
0 0.942421 0
0 0.942411 0
0 0.942392 0
0 0.942368 0
0 0.942345 0
0 0.942315 0
0 0.942273 0
0 0.942219 0
0 0.942148 0
0 0.942057 0
0 0.941941 0
0 0.941792 0
0 0.941597 0
0 0.941346 0
0 0.941025 0
0 0.94061 0
0.000290326 0.94007 0
0.0175583 0.939089 0
0.130285 0.936183 0
0.352801 0.929979 0
0.57528 0.920748 0
0.765416 0.904153 0
0.904758 0.859911 0
0.976444 0.775375 0
0.998289 0.671971 0
1 0.56824 0
1 0.467504 0
1 0.368912 0
1 0.271404 0
1 0.17096 0
0 0.963675 0
0 0.963675 0
0 0.963675 0
0 0.963673 0
0 0.963667 0
0 0.963657 0
0 0.963644 0
0 0.963631 0
0 0.963614 0
0 0.96359 0
0 0.96356 0
0 0.96352 0
0 0.96347 0
0 0.963405 0
0 0.963322 0
0 0.963214 0
0 0.963074 0
0 0.962896 0
0 0.962666 0
0 0.962364 0
0.000366322 0.961924 0
0.0187873 0.961028 0
0.136743 0.958243 0
0.36829 0.952155 0
0.596978 0.942992 0
0.78924 0.926481 0
0.924619 0.881108 0
0.985999 0.792793 0
0.99958 0.685426 0
1 0.57805 0
1 0.474046 0
1 0.374292 0
1 0.278739 0
0 0.979255 0
0 0.979255 0
0 0.979255 0
0 0.979254 0
0 0.979251 0
0 0.979245 0
0 0.979237 0
0 0.97923 0
0 0.97922 0
