MONITOR LUTS/APPLE LOG_WARM_+1.cube
# Generated by CineMatch
# Date: 24/10/123
# Time: 17:22:5
TITLE "APPLE LOG_WARM_+1.cube"
LUT_3D_SIZE 9
0 0 0
3.7043e-05 0 0
0.282502 0 0
0.636583 0 0
0.949687 0 0
1 0 0
1 0 0
1 0 0
1 0 0
0 3.32422e-05 0
3.68903e-05 3.32422e-05 0
0.282474 0 0
0.636568 0 0
0.949684 0 0
1 0 0
1 0 0
1 0 0
1 0 0
0 0.208655 0
0 0.208649 0
0.207673 0.189879 0
0.600616 0.133094 0
0.943229 0.00220106 0
1 0 0
1 0 0
1 0 0
1 0 0
0 0.495001 0
0 0.494998 0
0.00596022 0.485444 0
0.493352 0.45818 0
0.908869 0.309843 0
1 0.0286502 0
1 0 0
1 0 0
1 0 0
0 0.794373 0
0 0.794372 0
0 0.791559 0
0.0640766 0.783363 0
0.769659 0.720739 0
0.999889 0.41897 0
1 0.0520787 0
1 0 0
1 0 0
0 0.951985 0
0 0.951985 0
0 0.951673 0
0 0.950855 0
0.115013 0.946516 0
0.914336 0.869509 0
1 0.467158 0
1 0.0791125 0
1 0.0243941 0
0 0.999798 0
0 0.999798 0
0 0.999787 0
0 0.999756 0
0 0.999671 0
0.143924 0.997808 0
0.958726 0.922387 0
1 0.552691 0
1 0.528274 0
0 1 0
0 1 0
0 1 0
0 1 0
0 1 0
0 1 0
0.159772 1 0
0.979909 0.968475 0
1 0.952067 0
0 1 0
0 1 0
0 1 0
0 1 0
0 1 0
0 1 0
0.0109689 1 0
0.935301 1 0
1 1 0
0 0 5.63672e-05
3.7043e-05 0 5.63672e-05
0.282496 0 1.89478e-05
0.63658 0 0
0.949686 0 0
1 0 0
1 0 0
1 0 0
1 0 0
0 3.32422e-05 5.6025e-05
3.68903e-05 3.32422e-05 5.6025e-05
0.282468 0 1.89478e-05
0.636565 0 0
0.949684 0 0
1 0 0
1 0 0
1 0 0
1 0 0
0 0.208654 0
0 0.208648 0
0.207665 0.189879 0
0.600612 0.133094 0
0.943229 0.00220057 0
1 0 0
1 0 0
1 0 0
1 0 0
0 0.495 0
0 0.494997 0
0.00595847 0.485444 0
0.493348 0.458179 0
0.908869 0.309843 0
1 0.0286498 0
1 0 0
1 0 0
1 0 0
0 0.794373 0
0 0.794372 0
0 0.791559 0
0.0640742 0.783362 0
0.769657 0.720739 0
0.999889 0.41897 0
1 0.0520787 0
1 0 0
1 0 0
0 0.951985 0
0 0.951985 0
0 0.951673 0
0 0.950855 0
0.115011 0.946516 0
0.914335 0.869509 0
1 0.467158 0
1 0.0791125 0
1 0.0243941 0
0 0.999798 0
0 0.999798 0
0 0.999787 0
0 0.999756 0
0 0.999671 0
0.143923 0.997808 0
0.958726 0.922387 0
1 0.552691 0
1 0.528274 0
0 1 0
0 1 0
0 1 0
0 1 0
0 1 0
0 1 0
0.159772 1 0
0.979909 0.968475 0
1 0.952067 0
0 1 0
0 1 0
0 1 0
0 1 0
0 1 0
0 1 0
0.0109683 1 0
0.935301 1 0
1 1 0
0 0 0.189288
0 0 0.189287
0.274977 0 0.186455
0.632657 0 0.1785
0.948575 0 0.118107
1 0 0.0230437
1 0 4.24561e-06
1 0 0
1 0 0
0 2.48176e-05 0.189282
0 2.48176e-05 0.189281
0.274948 0 0.186448
0.632643 0 0.178493
0.948573 0 0.118102
1 0 0.0230406
1 0 4.24561e-06
1 0 0
1 0 0
0 0.207601 0.173798
0 0.207596 0.173797
0.198239 0.188765 0.170794
0.596498 0.131718 0.162613
0.942104 0.00206511 0.104611
1 0 0.0161941
1 0 6.39679e-07
1 0 0
1 0 0
0 0.494416 0.127985
0 0.494413 0.127984
0.00409808 0.484852 0.124421
0.488474 0.457638 0.114327
0.907747 0.309488 0.0605405
1 0.0283618 0.00426816
1 0 0
1 0 0
1 0 0
0 0.794184 0.00556123
0 0.794183 0.00556113
0 0.791372 0.00484809
0.0609314 0.783223 0.00320579
0.767953 0.721013 0.000708944
0.999885 0.419014 6.50146e-07
1 0.0519312 0
1 0 0
1 0 0
0 0.951968 0
0 0.951968 0
0 0.951655 0
0 0.950837 0
0.112674 0.946543 0
0.913889 0.869739 0
1 0.467197 0
1 0.0790231 0
1 0.0243354 0
0 0.999798 0
0 0.999798 0
0 0.999786 0
0 0.999755 0
0 0.99967 0
0.142728 0.997818 0
0.958607 0.922483 0
1 0.552661 0
1 0.528238 0
0 1 0
0 1 0
0 1 0
0 1 0
0 1 0
0 1 0
0.159259 1 0
0.97988 0.968484 0
1 0.95206 0
0 1 0
0 1 0
0 1 0
0 1 0
0 1 0
0 1 0
0.0107103 1 0
0.935219 1 0
1 1 0
0 0 0.457141
0 0 0.457141
0.254642 0 0.455625
0.622302 0 0.450883
0.945354 0 0.359161
1 0 0.206926
1 0 0.0586196
1 0 0.000283182
1 0 0
0 3.41301e-06 0.457138
0 3.35635e-06 0.457137
0.254611 0 0.455622
0.622287 0 0.45088
0.945351 0 0.35916
1 0 0.206925
1 0 0.0586181
1 0 0.000283182
1 0 0
0 0.204862 0.449017
0 0.204856 0.449016
0.17199 0.185845 0.447482
0.585584 0.128057 0.443141
0.938743 0.00172851 0.355524
1 0 0.202966
1 0 0.0551315
1 0 0.000211292
1 0 0
0 0.492807 0.426867
0 0.492804 0.426867
0.00147606 0.483214 0.425446
0.475358 0.456027 0.42062
0.903918 0.30808 0.336167
1 0.0275813 0.191491
1 0 0.046029
1 0 0.000102797
1 0 0
0 0.792264 0.298878
0 0.792264 0.298878
0 0.789467 0.298195
0.0519426 0.781384 0.296088
0.762061 0.720349 0.272007
0.999866 0.418654 0.145647
1 0.0515271 0.0225698
1 0 3.55374e-06
1 0 0
0 0.951704 0.0470904
0 0.951704 0.0470901
0 0.951395 0.0460381
0 0.950588 0.0433785
0.107672 0.946436 0.0361628
0.912641 0.87025 0.0155395
1 0.467298 0.000273401
1 0.07879 0
1 0.0241827 0
0 0.999796 0
0 0.999796 0
0 0.999784 0
0 0.999753 0
0 0.999669 0
0.139633 0.997844 0
0.958296 0.922732 0
1 0.552586 0
1 0.528144 0
0 1 0
0 1 0
0 1 0
0 1 0
0 1 0
0 1 0
0.157923 1 0
0.979805 0.968508 0
1 0.95204 0
0 1 0
0 1 0
0 1 0
0 1 0
0 1 0
0 1 0
0.0100464 1 0
0.935008 1 0
1 1 0
0 0 0.824728
0 0 0.824727
0.178243 0 0.82164
0.554582 0 0.809581
0.93626 0 0.718739
1 0 0.471411
1 0 0.244792
1 0 0.107175
1 0 0.0943381
0 0 0.824726
0 0 0.824726
0.178208 0 0.821639
0.554567 0 0.80958
0.936258 0 0.71874
1 0 0.471411
1 0 0.244792
1 0 0.107174
1 0 0.0943372
0 0.181984 0.813292
0 0.181979 0.813292
0.0786157 0.163461 0.812676
0.516186 0.104889 0.803482
0.929205 0.00109773 0.720835
1 0 0.471093
1 0 0.243492
1 0 0.105406
1 0 0.0924596
0 0.446827 0.784161
0 0.446824 0.784161
8.5842e-06 0.438279 0.784369
0.398363 0.411133 0.778502
0.892845 0.304091 0.710272
1 0.0255075 0.469314
1 0 0.240023
1 0 0.100756
1 0 0.0875253
0 0.784758 0.689454
0 0.784757 0.689454
0 0.781951 0.690392
0.0276461 0.773843 0.692315
0.744244 0.717259 0.66606
0.999746 0.41721 0.445475
1 0.0503797 0.228772
1 0 0.0874864
1 0 0.0736454
0 0.949168 0.407244
0 0.949168 0.407244
0 0.948847 0.407358
0 0.948008 0.407667
0.0960978 0.944079 0.407387
0.907117 0.869523 0.366735
1 0.466898 0.182137
1 0.078107 0.0488869
1 0.0237523 0.0360124
0 0.999674 0.0763757
0 0.999674 0.0763754
0 0.999662 0.0759317
0 0.999632 0.0747504
0 0.99955 0.071448
0.132184 0.997755 0.0620368
0.957339 0.923266 0.0300508
1 0.552374 0.000865388
1 0.527884 0.000215292
0 1 0
0 1 0
0 1 0
0 1 0
0 1 0
0 1 0
0.154292 1 0
0.979598 0.968572 0
1 0.951984 0
0 1 0
0 1 0
0 1 0
0 1 0
0 1 0
0 1 0
0.00825119 1 0
0.934424 1 0
1 1 0
0 0 1
0 0 1
0.00556322 0 1
0.362204 0 0.99989
0.801767 0 0.999205
1 0 0.871691
1 0 0.520828
1 0 0.328906
1 0 0.322694
0 0 1
0 0 1
0.00555659 0 1
0.36219 0 0.99989
0.801761 0 0.999205
1 0 0.871692
1 0 0.520828
1 0 0.328906
1 0 0.322693
0 0.110229 0.999933
0 0.110225 0.999933
0.000103443 0.0940639 0.999942
0.327158 0.047056 0.999832
0.788138 0.00013279 0.999218
1 0 0.873814
1 0 0.520915
1 0 0.328051
1 0 0.321826
0 0.334502 0.999531
0 0.3345 0.999531
0 0.327373 0.999546
0.21307 0.306261 0.999452
0.73708 0.23812 0.997326
0.999998 0.0201121 0.878571
1 0 0.521142
1 0 0.32581
1 0 0.319548
0 0.640399 0.987197
0 0.640398 0.987197
0 0.637034 0.987445
0.00231185 0.628069 0.988082
0.575882 0.588952 0.981578
0.998855 0.413035 0.866489
1 0.0472822 0.519815
1 0 0.319586
1 0 0.313221
0 0.939846 0.847239
0 0.939846 0.847239
0 0.939384 0.848005
0 0.938169 0.850029
0.0570772 0.93386 0.854808
0.890041 0.866164 0.812429
1 0.465445 0.493898
1 0.076137 0.300114
1 0.0225006 0.294712
0 0.999014 0.455623
0 0.999014 0.455623
0 0.998999 0.45573
0 0.998954 0.456013
0 0.998815 0.456802
0.11814 0.996652 0.457378
0.952946 0.922556 0.407964
1 0.550873 0.229716
1 0.526304 0.2232
0 1 0.0931287
0 1 0.0931285
0 1 0.0929456
0 1 0.0924658
0 1 0.0911379
0 1 0.0874788
0.14526 1 0.0766573
0.978981 0.96863 0.0407569
1 0.951701 0.0330155
0 1 0.0301197
0 1 0.0301197
0 1 0.0299864
0 1 0.0296397
0 1 0.0286861
0 1 0.0260125
0.00380922 1 0.019159
0.932784 1 0.00596946
1 1 0.0040333
0 0 1
0 0 1
0 0 1
0.0509249 0 1
0.455382 0 1
0.904137 0 1
1 0 0.922761
1 0 0.6588
1 0 0.6553
0 0 1
0 0 1
0 0 1
0.0509146 0 1
0.455377 0 1
0.904135 0 1
1 0 0.922762
1 0 0.6588
1 0 0.6553
0 0.019687 1
0 0.0196849 1
0 0.0132594 1
0.0296575 0.00296038 1
0.442908 2.03705e-08 1
0.900099 0 1
1 0 0.923581
1 0 0.658323
1 0 0.654817
0 0.181966 1
0 0.181965 1
0 0.176612 1
0.00350082 0.161983 1
0.405019 0.113634 1
0.888844 0.00495303 1
1 0 0.925738
1 0 0.657074
1 0 0.653556
0 0.410998 1
0 0.410997 1
0 0.408312 1
0 0.401189 1
0.281694 0.377663 1
0.836188 0.301732 1
1 0.0392017 0.930381
1 0 0.653627
1 0 0.650073
0 0.731913 1
0 0.731913 1
0 0.730688 1
0 0.727461 1
0.00503115 0.718361 1
0.659929 0.672855 0.999987
0.99998 0.461161 0.919297
1 0.0708839 0.640942
1 0.0195367 0.639482
0 0.991648 0.904451
0 0.991648 0.904451
0 0.991561 0.904771
0 0.991332 0.90561
0 0.99069 0.907929
0.0743134 0.987698 0.913327
0.938569 0.919265 0.867647
1 0.546421 0.578986
1 0.521549 0.576684
0 1 0.491697
0 1 0.491697
0 1 0.491717
0 1 0.491771
0 1 0.49192
0 1 0.492342
0.129226 1 0.491847
0.976573 0.967731 0.446368
1 0.9493 0.431848
0 1 0.442227
0 1 0.442227
0 1 0.442133
0 1 0.441885
0 1 0.441204
0 1 0.439325
2.36572e-06 1 0.434115
0.926609 1 0.399002
1 1 0.390912
0 0 1
0 0 1
0 0 1
0 0 1
0.0814912 0 1
0.496708 0 1
0.940025 0 1
1 0 0.998202
1 0 0.997982
0 0 1
0 0 1
0 0 1
0 0 1
0.0814868 0 1
0.496706 0 1
0.940025 0 1
1 0 0.998202
1 0 0.997982
0 1.37457e-05 1
0 1.37457e-05 1
0 9.10187e-07 1
0 0 1
0.070447 0 1
0.492105 0 1
0.938815 0 1
1 0 0.998172
1 0 0.997951
0 0.0480566 1
0 0.0480555 1
0 0.0445617 1
0 0.0356268 1
0.0447554 0.0148566 1
0.47987 5.92562e-05 1
0.935612 0 1
1 0 0.998094
1 0 0.997873
0 0.211724 1
0 0.211723 1
0 0.2098 1
0 0.204709 1
0.00627722 0.190146 1
0.439789 0.141895 1
0.925834 0.0110281 1
1 0 0.997879
1 0 0.997656
0 0.445346 1
0 0.445345 1
0 0.444345 1
0 0.441717 1
0 0.434404 1
0.31216 0.409709 1
0.876993 0.330507 1
1 0.0580536 0.996882
1 0.0133581 0.996951
0 0.775184 1
0 0.775184 1
0 0.774738 1
0 0.773571 1
0 0.770339 1
0.00651488 0.761148 1
0.699845 0.713723 1
0.999999 0.534183 0.984864
1 0.508702 0.98473
0 0.999414 0.945191
0 0.999414 0.945192
0 0.999409 0.945268
0 0.999397 0.945468
0 0.999364 0.946019
0 0.99927 0.947515
0.0828893 0.998712 0.950614
0.966803 0.96408 0.917548
1 0.942659 0.900029
0 1 0.91338
0 1 0.91338
0 1 0.913345
0 1 0.913254
0 1 0.913003
0 1 0.91231
0 1 0.910391
0.908326 1 0.875938
1 1 0.86702
0 0 1
0 0 1
0 0 1
0 0 1
0.00324143 0 1
0.40008 0 1
0.865419 0 1
1 0 1
1 0 1
0 0 1
0 0 1
0 0 1
0 0 1
0.00324011 0 1
0.400078 0 1
0.865418 0 1
1 0 1
1 0 1
0 0 1
0 0 1
0 0 1
0 0 1
0.00146412 0 1
0.395353 0 1
0.863617 0 1
1 0 1
1 0 1
0 0.0226415 1
0 0.0226407 1
0 0.0202352 1
0 0.0143349 1
0 0.0039668 1
0.38278 2.13959e-07 1
0.858838 0 1
1 0 1
1 0 1
0 0.174415 1
0 0.174415 1
0 0.172585 1
0 0.16771 1
0 0.153833 1
0.34345 0.108545 1
0.844812 0.00517057 1
1 0 1
1 0 1
0 0.391793 1
0 0.391793 1
0 0.390835 1
0 0.388323 1
0 0.381341 1
0.211989 0.359517 1
0.787264 0.28784 1
1 0.0517526 1
1 0.0111117 1
0 0.700885 1
0 0.700885 1
0 0.700413 1
0 0.699174 1
0 0.695757 1
0.000437515 0.686187 1
0.608217 0.644149 1
0.999979 0.526453 1
1 0.502498 1
0 0.993374 1
0 0.993374 1
0 0.993305 1
0 0.993126 1
0 0.99263 1
0 0.991248 1
0.0514851 0.986677 1
0.948311 0.948695 1
0.999986 0.939128 1
0 1 1
0 1 1
0 1 1
0 1 1
0 1 1
0 1 1
0 1 1
0.897579 1 1
0.999937 1 1
