MONITOR LUTS/APPLE LOG_COOL_-1.cube
# Generated by CineMatch
# Date: 24/10/123
# Time: 17:20:13
TITLE "APPLE LOG_COOL_-1.cube"
LUT_3D_SIZE 33
0 0 0
0 0 0
6.21641e-05 0 0
0.00131096 0 0
0.00756866 0 0
0.020938 0 0
0.0398961 0 0
0.0614445 0 0
0.088862 0 0
0.123698 0 0
0.162248 0 0
0.204715 0 0
0.252098 0 0
0.305635 0 0
0.365901 0 0
0.433912 0 0
0.510848 0 0
0.59778 0 0
0.688523 0 0
0.768085 0 0
0.844789 0 0
0.912651 0 0
0.964054 0 0
0.994577 0 0
1 0 0
1 0 0
1 0 0
1 0 0
1 0 0
1 0 0
1 0 0
1 0 0
1 0 0
0 0 0
0 0 0
6.21641e-05 0 0
0.00131096 0 0
0.00756866 0 0
0.020938 0 0
0.0398961 0 0
0.0614445 0 0
0.088862 0 0
0.123698 0 0
0.162248 0 0
0.204715 0 0
0.252098 0 0
0.305635 0 0
0.365901 0 0
0.433912 0 0
0.510848 0 0
0.59778 0 0
0.688523 0 0
0.768085 0 0
0.844789 0 0
0.912651 0 0
0.964054 0 0
0.994577 0 0
1 0 0
1 0 0
1 0 0
1 0 0
1 0 0
1 0 0
1 0 0
1 0 0
1 0 0
0 3.00625e-05 0
0 3.00602e-05 0
6.19324e-05 3.00625e-05 0
0.00130572 2.92103e-05 0
0.00754937 2.53398e-05 0
0.0209013 1.93556e-05 0
0.0398466 1.24287e-05 0
0.0613903 6.35989e-06 0
0.0888107 1.67261e-06 0
0.123654 4.76074e-09 0
0.162211 0 0
0.204682 0 0
0.25207 0 0
0.30561 0 0
0.36588 0 0
0.433893 0 0
0.510831 0 0
0.597766 0 0
0.688512 0 0
0.768078 0 0
0.844784 0 0
0.912647 0 0
0.964052 0 0
0.994577 0 0
1 0 0
1 0 0
1 0 0
1 0 0
1 0 0
1 0 0
1 0 0
1 0 0
1 0 0
0 0.00069625 0
0 0.000696218 0
5.61758e-05 0.000695234 0
0.00121094 0.00067618 0
0.00719411 0.000611037 0
0.0202176 0.000504691 0
0.0389122 0.00038079 0
0.0603556 0.000269472 0
0.0878234 0.00017174 0
0.122807 0.00010845 0
0.161488 7.42976e-05 0
0.204061 3.84662e-05 0
0.251534 7.94073e-06 0
0.305141 0 0
0.365468 0 0
0.433533 0 0
0.510515 0 0
0.597489 0 0
0.688307 0 0
0.767942 0 0
0.844678 0 0
0.912584 0 0
0.964017 0 0
0.994569 0 0
1 0 0
1 0 0
1 0 0
1 0 0
1 0 0
1 0 0
1 0 0
1 0 0
1 0 0
0 0.00401106 0
0 0.00401106 0
3.82911e-05 0.00400705 0
0.000914113 0.00393896 0
0.00600629 0.00371114 0
0.0178288 0.00333707 0
0.0355369 0.00289569 0
0.0565167 0.00246791 0
0.0840837 0.00200108 0
0.11958 0.00151466 0
0.158749 0.00109638 0
0.201717 0.000652699 0
0.249504 0.000248132 0
0.303371 7.45151e-05 0
0.363919 1.407e-05 0
0.432176 0 0
0.509323 0 0
0.596445 0 0
0.687537 0 0
0.767426 0 0
0.844278 0 0
0.912345 0 0
0.963885 0 0
0.994538 0 0
1 0 0
1 0 0
1 0 0
1 0 0
1 0 0
1 0 0
1 0 0
1 0 0
1 0 0
0 0.0117356 0
0 0.0117356 0
1.78e-05 0.011727 0
0.000535905 0.01159 0
0.00424029 0.0111328 0
0.0140223 0.0103812 0
0.0298993 0.00948938 0
0.0498936 0.00859728 0
0.0774833 0.00754127 0
0.113843 0.0062458 0
0.153901 0.00492588 0
0.19758 0.00349577 0
0.245931 0.00201273 0
0.300259 0.000930142 0
0.361201 0.000273854 0
0.429795 3.53013e-05 0
0.507233 0 0
0.594616 0 0
0.686187 0 0
0.766523 0 0
0.843577 0 0
0.911926 0 0
0.963655 0 0
0.994485 0 0
1 0 0
1 0 0
1 0 0
1 0 0
1 0 0
1 0 0
1 0 0
1 0 0
1 0 0
0 0.0237739 0
0 0.0237739 0
4.09912e-06 0.0237615 0
0.000238192 0.0235613 0
0.00255451 0.0228957 0
0.0100049 0.0218035 0
0.0235504 0.0205033 0
0.0420683 0.0191781 0
0.0693799 0.017537 0
0.106701 0.0153439 0
0.147905 0.012854 0
0.192495 0.0100519 0
0.241548 0.00690936 0
0.296452 0.00403992 0
0.357879 0.00177137 0
0.426888 0.000455226 0
0.504685 3.85901e-05 0
0.592387 2.10205e-07 0
0.684543 0 0
0.765421 0 0
0.842722 0 0
0.911416 0 0
0.963374 0 0
0.99442 0 0
1 0 0
1 0 0
1 0 0
1 0 0
1 0 0
1 0 0
1 0 0
1 0 0
1 0 0
0 0.0386832 0
0 0.0386832 0
0 0.0386682 0
8.96093e-05 0.0384281 0
0.00137015 0.0376289 0
0.00671466 0.0363165 0
0.0178408 0.0347518 0
0.034536 0.0331451 0
0.0611197 0.031122 0
0.0992344 0.0283024 0
0.141674 0.0248435 0
0.18725 0.0207827 0
0.237047 0.015943 0
0.292553 0.0108121 0
0.354485 0.00598963 0
0.423921 0.00232976 0
0.502089 0.000476339 0
0.59012 2.66306e-05 0
0.682873 0 0
0.764301 0 0
0.841852 0 0
0.910896 0 0
0.963089 0 0
0.994354 0 0
1 0 0
1 0 0
1 0 0
1 0 0
1 0 0
1 0 0
1 0 0
1 0 0
1 0 0
0 0.0598596 0
0 0.0598596 0
0 0.0598432 0
2.32982e-05 0.0595865 0
0.000538967 0.058733 0
0.00371521 0.0573279 0
0.0118523 0.0556525 0
0.0258018 0.0539275 0
0.0506598 0.0517424 0
0.0893222 0.0486363 0
0.133433 0.044584 0
0.180386 0.0395738 0
0.231198 0.033278 0
0.287506 0.0257291 0
0.350102 0.0173807 0
0.4201 0.00930871 0
0.498754 0.00330266 0
0.587211 0.000537455 0
0.680733 3.06914e-05 0
0.762864 0 0
0.840732 0 0
0.910228 0 0
0.962724 0 0
0.99427 0 0
1 0 0
1 0 0
1 0 0
1 0 0
1 0 0
1 0 0
1 0 0
1 0 0
1 0 0
0 0.0888765 0
0 0.0888765 0
0 0.0888614 0
0 0.0886226 0
0.000111047 0.087825 0
0.00136903 0.0865124 0
0.00597249 0.0849475 0
0.0157748 0.0833353 0
0.0367538 0.0812883 0
0.0746793 0.0783599 0
0.121139 0.074426 0
0.170301 0.0693725 0
0.222693 0.0627991 0
0.280216 0.0542275 0
0.343797 0.0434627 0
0.414622 0.0306778 0
0.493984 0.0172907 0
0.583057 0.00658596 0
0.67767 0.00134547 0
0.760812 9.47559e-05 0
0.839134 1.35449e-06 0
0.909275 0 0
0.962193 0 0
0.994142 0 0
1 0 0
1 0 0
1 0 0
1 0 0
1 0 0
1 0 0
1 0 0
1 0 0
1 0 0
0 0.121786 0
0 0.121786 0
0 0.121773 0
0 0.121567 0
1.13905e-05 0.120879 0
0.000266508 0.11975 0
0.00193609 0.118404 0
0.00708258 0.117019 0
0.0217616 0.115257 0
0.0556306 0.112722 0
0.104335 0.109309 0
0.156707 0.104909 0
0.211407 0.0991051 0
0.270626 0.0913304 0
0.335555 0.0810263 0
0.407489 0.0674036 0
0.487789 0.0498975 0
0.577671 0.029652 0
0.673526 0.0117394 0
0.757997 0.00228932 0
0.837053 0.00012835 0
0.908043 0 0
0.961473 0 0
0.993949 0 0
1 0 0
1 0 0
1 0 0
1 0 0
1 0 0
1 0 0
1 0 0
1 0 0
1 0 0
0 0.158173 0
0 0.158173 0
0 0.158161 0
0 0.157985 0
0 0.1574 0
1.80352e-05 0.156437 0
0.000320141 0.15529 0
0.00201071 0.154109 0
0.00931196 0.152605 0
0.0335151 0.150443 0
0.0812448 0.147552 0
0.137717 0.143847 0
0.196063 0.138968 0
0.257782 0.132458 0
0.324614 0.123819 0
0.398078 0.11221 0
0.47965 0.0963867 0
0.570615 0.0748455 0
0.667566 0.0472427 0
0.753518 0.0198624 0
0.834066 0.00429095 0
0.90636 0.000299961 0
0.960495 2.03125e-07 0
0.993669 0 0
0.999999 0 0
1 0 0
1 0 0
1 0 0
1 0 0
1 0 0
1 0 0
1 0 0
1 0 0
0 0.198493 0
0 0.198492 0
0 0.198483 0
0 0.19833 0
0 0.197821 0
0 0.196984 0
1.47034e-05 0.195987 0
0.000233717 0.194963 0
0.00216434 0.193671 0
0.0136256 0.191827 0
0.0524753 0.189357 0
0.111124 0.186187 0
0.175135 0.182053 0
0.240665 0.176581 0
0.310219 0.1694 0
0.385796 0.159874 0
0.469086 0.147026 0
0.561491 0.129303 0
0.659578 0.103091 0
0.746911 0.0652618 0
0.829462 0.0277731 0
0.903813 0.00620107 0
0.959159 0.000474317 0
0.993238 4.59888e-06 0
0.999986 0 0
1 0 0
1 0 0
1 0 0
1 0 0
1 0 0
1 0 0
1 0 0
1 0 0
0 0.243632 0
0 0.243632 0
0 0.243624 0
0 0.243491 0
0 0.243049 0
0 0.242321 0
0 0.241454 0
4.61975e-07 0.240562 0
0.000128117 0.239435 0
0.0024948 0.23783 0
0.0235036 0.235693 0
0.0747435 0.23296 0
0.145512 0.229406 0
0.217319 0.224724 0
0.290989 0.218622 0
0.369576 0.210617 0
0.45524 0.19999 0
0.549593 0.185687 0
0.649181 0.164359 0
0.738057 0.129641 0
0.822754 0.0839329 0
0.899711 0.0371368 0
0.957047 0.00795377 0
0.992491 0.000447764 0
0.99994 0 0
1 0 0
1 0 0
1 0 0
1 0 0
1 0 0
1 0 0
1 0 0
1 0 0
0 0.294841 0
0 0.294841 0
0 0.294833 0
0 0.294717 0
0 0.29433 0
0 0.293693 0
0 0.292933 0
0 0.29215 0
2.09958e-06 0.29116 0
0.000154039 0.289756 0
0.00583629 0.287895 0
0.0349287 0.285516 0
0.101957 0.282426 0
0.183448 0.278373 0
0.26424 0.27311 0
0.347479 0.266248 0
0.436611 0.257224 0
0.533712 0.245238 0
0.635388 0.226979 0
0.726336 0.196034 0
0.813677 0.155605 0
0.893463 0.104975 0
0.9532 0.0487602 0
0.991039 0.0114754 0
0.999839 0.000765407 0
1 0 0
1 0 0
1 0 0
1 0 0
1 0 0
1 0 0
1 0 0
1 0 0
0 0.352659 0
0 0.352659 0
0 0.352653 0
0 0.35255 0
0 0.352209 0
0 0.351647 0
0 0.350977 0
0 0.35029 0
0 0.349424 0
0 0.348197 0
0.000513833 0.346567 0
0.00875566 0.344483 0
0.0502671 0.341785 0
0.133528 0.338256 0
0.226267 0.333688 0
0.317308 0.327754 0
0.411654 0.319998 0
0.512679 0.309775 0
0.617277 0.293467 0
0.711017 0.264148 0
0.801731 0.227232 0
0.88503 0.182617 0
0.947374 0.124069 0
0.98837 0.0593479 0
0.999619 0.0146107 0
1 0.00105737 0
1 0 0
1 0 0
1 0 0
1 0 0
1 0 0
1 0 0
1 0 0
0 0.41813 0
0 0.41813 0
0 0.418124 0
0 0.418034 0
0 0.417733 0
0 0.417242 0
0 0.416655 0
0 0.416053 0
0 0.415294 0
0 0.414217 0
0 0.412786 0
0.000709293 0.41096 0
0.012718 0.408598 0
0.0700925 0.405515 0
0.16921 0.401534 0
0.274578 0.396377 0
0.377536 0.389662 0
0.484445 0.380864 0
0.593269 0.365777 0
0.690849 0.3368 0
0.785855 0.301212 0
0.873683 0.259923 0
0.939471 0.207098 0
0.984519 0.141418 0
0.99928 0.0684477 0
1 0.0171064 0
1 0.00124372 0
1 6.44531e-07 0
1 0 0
1 0 0
1 0 0
1 0 0
1 0 0
0 0.491952 0
0 0.49195 0
0 0.491947 0
0 0.491869 0
0 0.491612 0
0 0.491188 0
0 0.490682 0
0 0.490162 0
0 0.48951 0
0 0.488582 0
0 0.487351 0
5.18604e-06 0.485784 0
0.000847975 0.483758 0
0.0196693 0.48111 0
0.092448 0.477661 0
0.209927 0.473164 0
0.329364 0.467285 0
0.445781 0.459581 0
0.561018 0.445164 0
0.664141 0.415721 0
0.764659 0.380265 0
0.85826 0.339962 0
0.928907 0.289365 0
0.979174 0.229129 0
0.998638 0.155912 0
1 0.0757109 0
1 0.0190299 0
1 0.00141359 0
1 4.85596e-06 0
1 0 0
1 0 0
1 0 0
1 0 0
0 0.568 0
0 0.568002 0
0 0.567997 0
0 0.567943 0
0 0.567761 0
0 0.56746 0
0 0.567101 0
0 0.566735 0
0 0.566271 0
0 0.565615 0
0 0.564743 0
0 0.563638 0
0 0.56221 0
0.00169846 0.56031 0
0.0274548 0.557669 0
0.117887 0.553914 0
0.254385 0.548504 0
0.387449 0.541131 0
0.513329 0.528244 0
0.627453 0.50124 0
0.736214 0.466216 0
0.837146 0.425583 0
0.914577 0.374855 0
0.970826 0.315915 0
0.9968 0.247259 0
1 0.167665 0
1 0.0819586 0
1 0.0206095 0
1 0.0014953 0
1 6.11816e-06 0
1 0 0
1 0 0
1 0 0
0 0.635592 0
0 0.635592 0
0 0.63559 0
0 0.635551 0
0 0.635419 0
0 0.635204 0
0 0.634948 0
0 0.634684 0
0 0.634352 0
0 0.633881 0
0 0.633258 0
0 0.632464 0
0 0.631441 0
0 0.630096 0
0.00260705 0.628287 0
0.0345162 0.625614 0
0.141531 0.621187 0
0.293883 0.614614 0
0.438021 0.605348 0
0.572058 0.588424 0
0.69675 0.559597 0
0.807944 0.51877 0
0.894767 0.466564 0
0.958335 0.406478 0
0.99304 0.337824 0
0.999922 0.262091 0
1 0.177929 0
1 0.0872455 0
1 0.0216808 0
1 0.00146736 0
1 5.85205e-06 0
1 0 0
1 0 0
0 0.705941 0
0 0.705941 0
0 0.705939 0
0 0.705904 0
0 0.705786 0
0 0.705592 0
0 0.705361 0
0 0.705124 0
0 0.704825 0
0 0.704401 0
0 0.703842 0
0 0.703129 0
0 0.70221 0
0 0.701013 0
0 0.699476 0
0.00288241 0.697464 0
0.0397021 0.694489 0
0.164471 0.689656 0
0.333229 0.682647 0
0.490385 0.672955 0
0.637531 0.655617 0
0.766317 0.619727 0
0.866789 0.566238 0
0.940221 0.503574 0
0.985405 0.432393 0
0.999349 0.355712 0
1 0.274948 0
1 0.186366 0
1 0.0914472 0
1 0.0223461 0
1 0.00136818 0
1 4.91177e-06 0
1 0 0
0 0.775935 0
0 0.775935 0
0 0.775933 0
0 0.775907 0
0 0.775821 0
0 0.77568 0
0 0.77551 0
0 0.775337 0
0 0.775118 0
0 0.774808 0
0 0.774399 0
0 0.773878 0
0 0.773205 0
0 0.77233 0
0 0.771207 0
0 0.769762 0
0.00267707 0.767871 0
0.0455645 0.765033 0
0.190077 0.759881 0
0.374665 0.752075 0
0.544692 0.74114 0
0.699046 0.718296 0
0.825047 0.67299 0
0.914003 0.608582 0
0.97134 0.533414 0
0.996801 0.453282 0
0.999993 0.370966 0
1 0.285112 0
1 0.192872 0
1 0.0946654 0
1 0.0226191 0
1 0.00121933 0
1 3.29384e-06 0
0 0.835544 0
0 0.835544 0
0 0.835543 0
0 0.835526 0
0 0.835472 0
0 0.835382 0
0 0.835274 0
0 0.835163 0
0 0.835025 0
0 0.834828 0
0 0.834568 0
0 0.834237 0
0 0.833808 0
0 0.833251 0
0 0.832536 0
0 0.831613 0
0 0.830421 0
0.0022463 0.828847 0
0.0523375 0.826087 0
0.211923 0.820645 0
0.411459 0.812276 0
0.59266 0.800257 0
0.753913 0.775105 0
0.873589 0.720598 0
0.947813 0.642829 0
0.988858 0.557755 0
0.999638 0.471377 0
1 0.383237 0
1 0.293173 0
1 0.198375 0
1 0.0973009 0
1 0.0227355 0
1 0.00102113 0
0 0.883767 0
0 0.883767 0
0 0.883767 0
0 0.883757 0
0 0.883726 0
0 0.883675 0
0 0.883613 0
0 0.88355 0
0 0.88347 0
0 0.883357 0
0 0.883207 0
0 0.883016 0
0 0.882771 0
0 0.882453 0
0 0.882044 0
0 0.881517 0
0 0.880835 0
0 0.879954 0
0.00250497 0.87878 0
0.057872 0.876463 0
0.23156 0.871215 0
0.445045 0.862812 0
0.635318 0.850418 0
0.798854 0.821884 0
0.909101 0.75838 0
0.970872 0.670766 0
0.996885 0.578916 0
1 0.485979 0
1 0.39305 0
1 0.300087 0
1 0.202855 0
1 0.0996845 0
1 0.0227676 0
0 0.917567 0
0 0.917567 0
0 0.917567 0
0 0.917562 0
0 0.917545 0
0 0.917517 0
0 0.917484 0
0 0.917449 0
0 0.917406 0
0 0.917346 0
0 0.917265 0
0 0.917163 0
0 0.917032 0
0 0.91686 0
0 0.916641 0
0 0.916358 0
0 0.915994 0
0 0.915522 0
0 0.914911 0
0.00329998 0.914075 0
0.0638907 0.912073 0
0.248289 0.90704 0
0.471687 0.898855 0
0.669031 0.886458 0
0.831981 0.855836 0
0.935219 0.787907 0
0.9858 0.694649 0
0.999416 0.595668 0
1 0.497387 0
1 0.401181 0
1 0.30527 0
1 0.206568 0
1 0.102216 0
0 0.94335 0
0 0.94335 0
0 0.94335 0
0 0.943347 0
0 0.943337 0
0 0.94332 0
0 0.943299 0
0 0.943279 0
0 0.943253 0
0 0.943215 0
0 0.943166 0
0 0.943103 0
0 0.943022 0
0 0.942918 0
0 0.942783 0
0 0.942609 0
0 0.942387 0
0 0.9421 0
0 0.941728 0
2.7124e-06 0.941251 0
0.00408085 0.940559 0
0.0690481 0.938659 0
0.261527 0.933741 0
0.493592 0.925705 0
0.696106 0.913439 0
0.858798 0.88278 0
0.955646 0.81265 0
0.99355 0.713477 0
0.999885 0.608948 0
1 0.507054 0
1 0.407484 0
1 0.309986 0
1 0.210865 0
0 0.96441 0
0 0.96441 0
0 0.964409 0
0 0.964407 0
0 0.964402 0
0 0.964392 0
0 0.964381 0
0 0.964369 0
0 0.964355 0
0 0.964334 0
0 0.964307 0
0 0.964272 0
0 0.964227 0
0 0.964169 0
0 0.964094 0
0 0.963998 0
0 0.963874 0
0 0.963716 0
0 0.963512 0
0 0.963247 0
7.954e-06 0.962876 0
0.00483319 0.962262 0
0.0734422 0.960461 0
0.273428 0.955678 0
0.512689 0.947725 0
0.719314 0.935447 0
0.880547 0.904232 0
0.969167 0.831487 0
0.997104 0.728387 0
1 0.620238 0
1 0.51455 0
1 0.413296 0
1 0.315599 0
0 0.979777 0
0 0.979777 0
0 0.979777 0
0 0.979776 0
0 0.979772 0
0 0.979767 0
0 0.97976 0
0 0.979753 0
0 0.979745 0
