MONITOR LUTS/APPLE LOG_WARM_-1.cube
# Generated by CineMatch
# Date: 24/10/123
# Time: 17:21:49
TITLE "APPLE LOG_WARM_-1.cube"
LUT_3D_SIZE 9
0 0 0
0.00697587 0 0
0.0964405 0 0
0.268138 0 0
0.539362 0 0
0.870322 0 0
1 0 0
1 0 0
1 0 0
0 0.00404466 0
0.00550761 0.00376371 0
0.0917485 0.00189867 0
0.265634 0.000175831 0
0.537893 0 0
0.869879 0 0
1 0 0
1 0 0
1 0 0
0 0.0592099 0
0.000503891 0.0581611 0
0.0588114 0.0504732 0
0.24832 0.030476 0
0.527897 0.00199702 0
0.866861 0 0
1 0 0
1 0 0
1 0 0
0 0.197041 0
0 0.196413 0
0.00324907 0.191827 0
0.196064 0.178953 0
0.499927 0.139787 0
0.857506 0.0168503 0
1 0 0
1 0 0
1 0 0
0 0.415532 0
0 0.415163 0
0 0.412466 0
0.0267563 0.405065 0
0.414623 0.384142 0
0.819117 0.284967 0
1 0.043373 0
1 0 0
1 0 0
0 0.703142 0
0 0.702996 0
0 0.701931 0
0 0.699033 0
0.0771205 0.690108 0
0.68809 0.641929 0
0.994194 0.402074 0
1 0.0570626 0
1 0 0
0 0.916399 0
0 0.916377 0
0 0.916221 0
0 0.915799 0
0 0.914631 0
0.12267 0.909267 0
0.879263 0.832945 0
1 0.459147 0
1 0.0654992 0
0 0.991368 0
0 0.991364 0
0 0.991342 0
0 0.991283 0
0 0.991122 0
0 0.990677 0
0.146591 0.986929 0
0.949359 0.909696 0
1 0.488976 0
0 1 0
0 1 0
0 1 0
0 1 0
0 1 0
0 1 0
0 1 0
0.156417 0.99999 0
0.972458 0.944715 0
0 0 0.00436135
0.00674796 0 0.00431424
0.0958154 0 0.00398739
0.267803 0 0.00311833
0.539165 0 0.00146075
0.870262 0 6.53019e-05
1 0 0
1 0 0
1 0 0
0 0.00402373 0.00410593
0.00531159 0.00374254 0.00406053
0.0911161 0.0018828 0.0037355
0.265297 0.000173851 0.00287358
0.537694 0 0.00136862
0.869818 0 5.83759e-05
1 0 0
1 0 0
1 0 0
0 0.0591305 0.00245247
0.000474379 0.0580823 0.00241598
0.0581443 0.0503932 0.00216608
0.247966 0.0304055 0.0016505
0.527697 0.001986 0.000780554
0.8668 0 2.11406e-05
1 0 0
1 0 0
1 0 0
0 0.196993 0.000490473
0 0.196366 0.000477768
0.00313 0.191779 0.000401014
0.195647 0.178903 0.000235119
0.499717 0.139728 7.59886e-05
0.857439 0.0168225 0
1 0 0
1 0 0
1 0 0
0 0.415504 0
0 0.415135 0
0 0.412438 0
0.0264812 0.405037 0
0.414377 0.384113 0
0.819042 0.284951 0
1 0.0433538 0
1 0 0
1 0 0
0 0.703131 0
0 0.702985 0
0 0.701919 0
0 0.699022 0
0.076892 0.690099 0
0.687982 0.641937 0
0.994189 0.402074 0
1 0.0570535 0
1 0 0
0 0.916397 0
0 0.916375 0
0 0.91622 0
0 0.915797 0
0 0.91463 0
0.12255 0.909268 0
0.879232 0.832959 0
1 0.45915 0
1 0.0654952 0
0 0.991367 0
0 0.991364 0
0 0.991342 0
0 0.991283 0
0 0.991121 0
0 0.990677 0
0.146516 0.98693 0
0.949351 0.909702 0
1 0.488976 0
0 1 0
0 1 0
0 1 0
0 1 0
0 1 0
0 1 0
0 1 0
0.156386 0.99999 0
0.972456 0.944717 0
0 0 0.0512792
0.00549845 0 0.0511262
0.092388 0 0.0500119
0.26596 0 0.0470039
0.53808 0 0.0386777
0.869851 0 0.0143276
1 0 0.00015613
1 0 0
1 0 0
0 0.00390596 0.050408
0.00425217 0.00362497 0.0502553
0.0876355 0.00180684 0.0491406
0.263439 0.000163814 0.0461269
0.536607 0 0.0378287
0.869409 0 0.0138627
1 0 0.000145071
1 0 0
1 0 0
0 0.0586954 0.0444891
0.000321163 0.0576491 0.0443357
0.0544886 0.0499538 0.0432152
0.246017 0.0300207 0.0401809
0.526593 0.00192698 0.0323319
0.866398 0 0.0108751
1 0 7.72136e-05
1 0 0
1 0 0
0 0.196734 0.0292072
0 0.196105 0.0290702
0.00252738 0.191516 0.0280765
0.193337 0.178629 0.0254293
0.498561 0.139408 0.018886
0.85704 0.0166709 0.00490544
1 0 1.1571e-05
1 0 0
1 0 0
0 0.415352 0.00393631
0 0.414982 0.00389603
0 0.412284 0.00361712
0.025038 0.404882 0.00295681
0.413025 0.38395 0.00158121
0.818623 0.284856 0.000151289
1 0.0432439 0
1 0 0
1 0 0
0 0.703071 0
0 0.702925 0
0 0.701859 0
0 0.698961 0
0.0756384 0.690052 0
0.687398 0.641972 0
0.994163 0.40208 0
1 0.0570043 0
1 0 0
0 0.916388 0
0 0.916367 0
0 0.916211 0
0 0.915788 0
0 0.914621 0
0.121896 0.909275 0
0.879066 0.833031 0
1 0.45916 0
1 0.0654734 0
0 0.991366 0
0 0.991363 0
0 0.991341 0
0 0.991282 0
0 0.99112 0
0 0.990676 0
0.146124 0.986935 0
0.949307 0.909734 0
1 0.488978 0
0 1 0
0 1 0
0 1 0
0 1 0
0 1 0
0 1 0
0 1 0
0.156215 0.99999 0
0.972443 0.944728 0
0 0 0.178574
0.00297509 0 0.178478
0.0828029 0 0.17777
0.260874 0 0.17584
0.535112 0 0.17045
0.868557 0 0.131826
1 0 0.0460257
1 0 0.000408352
1 0 0
0 0.00358941 0.178019
0.00225347 0.00330879 0.177922
0.0779055 0.00163066 0.177213
0.258319 0.000136494 0.17528
0.533632 0 0.169873
0.868112 0 0.131333
1 0 0.0456342
1 0 0.000397222
1 0 0
0 0.0575231 0.174233
0.000107162 0.0564756 0.174134
0.0447579 0.0487578 0.173413
0.24064 0.0289731 0.171443
0.52357 0.00176605 0.165965
0.86508 0 0.127959
1 0 0.042989
1 0 0.000328832
1 0 0
0 0.196027 0.163642
0 0.195398 0.163539
0.00137308 0.190798 0.162791
0.186931 0.177878 0.160738
0.495395 0.138528 0.15502
0.855685 0.0162574 0.118141
1 0 0.0359526
1 0 0.0001743
1 0 0
0 0.414935 0.131713
0 0.414565 0.131595
0 0.411864 0.130736
0.021438 0.404458 0.128388
0.40932 0.383507 0.12179
0.817185 0.284459 0.0853885
1 0.0429301 0.0185601
1 0 2.05903e-05
1 0 0
0 0.702803 0.0257441
0 0.702658 0.0256657
0 0.701593 0.0250937
0 0.698699 0.0236461
0.072121 0.689838 0.0197913
0.68575 0.642024 0.0102164
0.994091 0.402095 0.000544981
1 0.0568668 0
1 0 0
0 0.916364 0
0 0.916343 0
0 0.916187 0
0 0.915764 0
0 0.914597 0
0.120179 0.909293 0
0.878612 0.833226 0
1 0.459192 0
1 0.0654145 0
0 0.991363 0
0 0.99136 0
0 0.991337 0
0 0.991279 0
0 0.991117 0
0 0.990672 0
0.145054 0.98695 0
0.949186 0.90982 0
1 0.488985 0
0 1 0
0 1 0
0 1 0
0 1 0
0 1 0
0 1 0
0 1 0
0.155748 0.99999 0
0.972409 0.944759 0
0 0 0.382544
0.000260493 0 0.382487
0.0552099 0 0.38207
0.246448 0 0.380931
0.526839 0 0.377796
0.864943 0 0.326575
1 0 0.207498
1 0 0.0676551
1 0 0.000640083
0 0.00271589 0.382215
0.000179843 0.00245921 0.382158
0.0503599 0.00124688 0.381741
0.243785 8.42288e-05 0.380601
0.52534 0 0.377461
0.864489 0 0.326385
1 0 0.207318
1 0 0.0674859
1 0 0.000634247
0 0.0542596 0.379988
1.08925e-06 0.0532029 0.37993
0.0216798 0.0454575 0.379509
0.225318 0.0261634 0.378367
0.515143 0.00135716 0.375209
0.861398 0 0.325101
1 0 0.206093
1 0 0.0663426
1 0 0.000595879
0 0.19407 0.373889
0 0.193441 0.373831
0.000160738 0.188805 0.373405
0.168356 0.175794 0.372248
0.486562 0.136073 0.36905
0.851892 0.0151143 0.321108
1 0 0.202687
1 0 0.0632221
1 0 0.000492725
0 0.413788 0.356639
0 0.413417 0.356578
0 0.410707 0.356133
0.0132614 0.403286 0.354936
0.398939 0.382282 0.351619
0.812958 0.283256 0.304413
1 0.0420047 0.191949
1 0 0.0545272
1 0 0.000256442
0 0.701387 0.27299
0 0.701241 0.272954
0 0.700174 0.272691
0 0.697265 0.27198
0.0618723 0.688485 0.269669
0.680315 0.641371 0.252229
0.993649 0.401678 0.151165
1 0.0564632 0.0307537
1 0 2.61966e-05
0 0.916017 0.0610382
0 0.915996 0.0609886
0 0.915841 0.0606274
0 0.915422 0.0596458
0 0.914264 0.0569488
0.115982 0.909076 0.0493913
0.877219 0.833622 0.0254226
1 0.459273 0.000952833
1 0.0652515 0
0 0.991353 0
0 0.99135 0
0 0.991328 0
0 0.991269 0
0 0.991108 0
0 0.990663 0
0.142257 0.986991 0
0.948853 0.910058 0
1 0.489003 0
0 1 0
0 1 0
0 1 0
0 1 0
0 1 0
0 1 0
0 1 0
0.154458 0.99999 0
0.972314 0.944843 0
0 0 0.713614
0 0 0.713583
0.00492984 0 0.71335
0.201665 0 0.711905
0.497377 0 0.705857
0.854717 0 0.63721
1 0 0.451215
1 0 0.244011
1 0 0.081172
0 0.00120748 0.7134
0 0.00111393 0.713372
0.00394461 0.000460742 0.713163
0.198626 1.9031e-05 0.711743
0.49589 0 0.705737
0.854241 0 0.637231
1 0 0.451192
1 0 0.243947
1 0 0.081104
0 0.0446152 0.711547
0 0.043591 0.711527
0.000467448 0.0363076 0.711385
0.177204 0.0188186 0.710303
0.485725 0.000602614 0.70489
0.85101 0 0.637382
1 0 0.451036
1 0 0.24351
1 0 0.0806432
0 0.186408 0.705596
0 0.185777 0.705592
0 0.181153 0.705566
0.108363 0.16788 0.704608
0.454475 0.126275 0.698704
0.84119 0.0121791 0.637096
1 0 0.450596
1 0 0.242312
1 0 0.0793885
0 0.399001 0.683668
0 0.398664 0.683677
0 0.396198 0.683742
0.00240201 0.38941 0.683893
0.357028 0.366307 0.678006
0.800877 0.279814 0.626908
0.999977 0.0394896 0.447834
1 0 0.238933
1 0 0.0758981
0 0.696285 0.609075
0 0.69614 0.609092
0 0.695085 0.609215
0 0.692201 0.60955
0.0379629 0.683385 0.60982
0.664501 0.638939 0.592363
0.992037 0.400315 0.425561
1 0.055263 0.227912
1 0 0.0660637
0 0.913626 0.389719
0 0.913604 0.389721
0 0.913445 0.389735
0 0.913012 0.389775
0 0.911819 0.389896
0.104207 0.90677 0.389131
0.871545 0.832843 0.352762
1 0.458846 0.183257
1 0.0647674 0.0382256
0 0.990976 0.0816716
0 0.990973 0.0816497
0 0.990952 0.081492
0 0.990894 0.0810624
0 0.990737 0.0798867
0 0.990304 0.0767208
0.135657 0.986806 0.0673726
0.947805 0.910534 0.0348454
1 0.489044 0.00121738
0 1 0
0 1 0
0 1 0
0 1 0
0 1 0
0 1 0
0 1 0
0.151071 0.999991 0
0.972053 0.945074 0
0 0 0.987316
0 0 0.987313
0 0 0.987293
0.0361717 0 0.986917
0.3498 0 0.983549
0.745778 0 0.972934
1 0 0.834458
1 0 0.511311
1 0 0.267647
0 3.60765e-05 0.987297
0 3.04964e-05 0.987294
0 4.24208e-06 0.987276
0.0339969 0 0.986916
0.348359 0 0.983547
0.7451 0 0.972927
1 0 0.834557
1 0 0.511313
1 0 0.26762
0 0.0138773 0.986716
0 0.0133711 0.986725
0 0.00998535 0.986789
0.021082 0.00364663 0.986729
0.338509 2.52407e-05 0.983531
0.740505 0 0.97288
1 0 0.835228
1 0 0.511329
1 0 0.267435
0 0.130187 0.983691
0 0.12962 0.983704
0 0.125423 0.983797
0.00360881 0.113552 0.984
0.308723 0.0761636 0.981251
0.72752 0.00448776 0.972555
0.999992 0 0.837024
1 0 0.511359
1 0 0.266933
0 0.317403 0.974178
0 0.317103 0.974189
0 0.314912 0.97427
3.10364e-08 0.308897 0.974492
0.211543 0.290343 0.973027
0.680379 0.231991 0.964678
0.999389 0.0329497 0.840339
1 0 0.511445
1 0 0.265541
0 0.596553 0.943726
0 0.596398 0.94374
0 0.595271 0.943844
0 0.5922 0.944127
0.00532835 0.58358 0.944852
0.538244 0.549133 0.936223
0.986718 0.39641 0.827542
1 0.0519508 0.509603
1 0 0.261648
0 0.905178 0.80892
0 0.905151 0.808954
0 0.904958 0.809198
0 0.904428 0.809857
0 0.902912 0.81164
0.0653668 0.897536 0.815571
0.854271 0.829553 0.774773
1 0.457424 0.484393
1 0.0633425 0.249009
0 0.988349 0.446952
0 0.988346 0.446956
0 0.988323 0.446988
0 0.988264 0.447075
0 0.988096 0.447315
0 0.987632 0.447984
0.122307 0.984351 0.448184
0.943204 0.909813 0.401752
1 0.48845 0.199456
0 1 0.0917872
0 1 0.0917788
0 1 0.0917166
0 1 0.0915486
0 1 0.0910855
0 1 0.0898316
0 1 0.0863648
0.142635 0.999989 0.0759555
0.971245 0.945538 0.038915
0 0 1
0 0 1
0 0 1
0 0 1
0.0719475 0 1
0.447478 0 1
0.884138 0 1
1 0 0.911107
1 0 0.551089
0 0 1
0 0 1
0 0 1
0 0 1
0.0706197 0 1
0.446875 0 1
0.883921 0 1
1 0 0.911147
1 0 0.551085
0 0.0001244 1
0 0.000114126 1
0 5.23328e-05 1
0 3.68069e-06 1
0.0618703 0 1
0.442781 0 1
0.882456 0 1
1 0 0.911416
1 0 0.55106
0 0.0399148 1
0 0.0395289 1
0 0.0367502 1
0 0.0295036 1
0.040476 0.0130059 1
0.431464 0.000160405 1
0.878425 0 1
1 0 0.912148
1 0 0.550992
0 0.186879 1
0 0.186646 1
0 0.184944 1
0 0.180265 1
0.00745938 0.166856 1
0.395027 0.122912 1
0.866214 0.010881 1
1 0 0.914184
1 0 0.550803
0 0.401851 1
0 0.401727 1
0 0.400831 1
0 0.398386 1
0 0.391566 1
0.278712 0.369065 1
0.813002 0.297384 1
1 0.043528 0.918251
1 0 0.550289
0 0.712175 0.999932
0 0.712117 0.999932
0 0.711695 0.999933
0 0.710547 0.999934
0 0.707365 0.999938
0.00890914 0.698312 0.99995
0.642465 0.654521 0.999686
0.999998 0.453311 0.906923
1 0.0595698 0.546467
0 0.97885 0.89062
0 0.978845 0.890634
0 0.978805 0.890742
0 0.978697 0.891034
0 0.978398 0.891839
0 0.977566 0.894074
0.0789534 0.973949 0.899015
0.928157 0.90662 0.854482
1 0.486699 0.514839
0 1 0.475723
0 1 0.475725
0 1 0.475739
0 1 0.475777
0 1 0.47588
0 1 0.476168
0 1 0.476965
0.127303 0.999968 0.477444
0.967741 0.94497 0.42768
0 0 1
0 0 1
0 0 1
0 0 1
0 0 1
0.0909984 0 1
0.491414 0 1
0.931007 0 1
1 0 0.950657
0 0 1
0 0 1
0 0 1
0 0 1
0 0 1
0.0904322 0 1
0.491183 0 1
0.930944 0 1
1 0 0.950663
0 0 1
0 0 1
0 0 1
0 0 1
0 0 1
0.0866039 0 1
0.489622 0 1
0.930519 0 1
1 0 0.950699
0 0.000478432 1
0 0.000462072 1
0 0.000357531 1
0 0.000194753 1
0 1.8802e-05 1
0.0766232 0 1
0.485357 0 1
0.929361 0 1
1 0 0.950799
0 0.0563435 1
0 0.0561799 1
0 0.0549882 1
0 0.0517601 1
0 0.0429563 1
0.0513536 0.0211023 1
0.473352 0.000313969 1
0.92611 0 1
1 0 0.95107
0 0.212211 1
0 0.212122 1
0 0.211474 1
0 0.209708 1
0 0.20479 1
0.0102491 0.190682 1
0.433878 0.14417 1
0.915909 0.0130072 1
1 0 0.951777
0 0.439192 1
0 0.439145 1
0 0.438804 1
0 0.437877 1
0 0.435313 1
2.12769e-07 0.428159 1
0.308926 0.40389 1
0.864883 0.326454 1
1 0.0499492 0.952616
0 0.761863 1
0 0.761842 1
0 0.761689 1
0 0.761273 1
0 0.760126 1
0 0.756941 1
0.0092829 0.74786 1
0.687562 0.700766 1
0.999997 0.482061 0.938743
0 0.99863 0.92463
0 0.99863 0.924635
0 0.998626 0.924671
0 0.998615 0.92477
0 0.998586 0.925042
0 0.998505 0.925792
0 0.998179 0.92786
0.0815974 0.996677 0.932766
0.956426 0.942109 0.892047
