MONITOR LUTS/APPLE LOG_Neutral_+1.cube
# Generated by CineMatch
# Date: 24/10/123
# Time: 17:19:16
TITLE "APPLE LOG_Neutral_+1.cube"
LUT_3D_SIZE 33
0 0 0
0 0 0
0 0 0
0 0 0
4.81133e-05 0 0
0.0320778 0 0
0.131485 0 0
0.205355 0 0
0.275674 0 0
0.350827 0 0
0.433133 0 0
0.523968 0 0
0.623637 0 0
0.719355 0 0
0.802151 0 0
0.880954 0 0
0.942258 0 0
0.985453 0 0
0.999495 0 0
1 0 0
1 0 0
1 0 0
1 0 0
1 0 0
1 0 0
1 0 0
1 0 0
1 0 0
1 0 0
1 0 0
1 0 0
1 0 0
1 0 0
0 0 0
0 0 0
0 0 0
0 0 0
4.81133e-05 0 0
0.0320778 0 0
0.131485 0 0
0.205355 0 0
0.275674 0 0
0.350827 0 0
0.433133 0 0
0.523968 0 0
0.623637 0 0
0.719355 0 0
0.802151 0 0
0.880954 0 0
0.942258 0 0
0.985453 0 0
0.999495 0 0
1 0 0
1 0 0
1 0 0
1 0 0
1 0 0
1 0 0
1 0 0
1 0 0
1 0 0
1 0 0
1 0 0
1 0 0
1 0 0
1 0 0
0 0 0
0 0 0
0 0 0
0 0 0
4.81133e-05 0 0
0.0320778 0 0
0.131485 0 0
0.205355 0 0
0.275674 0 0
0.350827 0 0
0.433133 0 0
0.523968 0 0
0.623637 0 0
0.719355 0 0
0.802151 0 0
0.880954 0 0
0.942258 0 0
0.985453 0 0
0.999495 0 0
1 0 0
1 0 0
1 0 0
1 0 0
1 0 0
1 0 0
1 0 0
1 0 0
1 0 0
1 0 0
1 0 0
1 0 0
1 0 0
1 0 0
0 0 0
0 0 0
0 0 0
0 0 0
4.81133e-05 0 0
0.0320778 0 0
0.131485 0 0
0.205355 0 0
0.275674 0 0
0.350827 0 0
0.433133 0 0
0.523968 0 0
0.623637 0 0
0.719355 0 0
0.802151 0 0
0.880954 0 0
0.942258 0 0
0.985453 0 0
0.999495 0 0
1 0 0
1 0 0
1 0 0
1 0 0
1 0 0
1 0 0
1 0 0
1 0 0
1 0 0
1 0 0
1 0 0
1 0 0
1 0 0
1 0 0
0 3.26641e-05 0
0 3.26641e-05 0
0 3.26641e-05 0
0 3.26641e-05 0
4.79184e-05 3.26641e-05 0
0.0320281 1.64355e-05 0
0.131439 0 0
0.20532 0 0
0.275645 0 0
0.350803 0 0
0.433113 0 0
0.52395 0 0
0.623622 0 0
0.719345 0 0
0.802144 0 0
0.880949 0 0
0.942255 0 0
0.985452 0 0
0.999495 0 0
1 0 0
1 0 0
1 0 0
1 0 0
1 0 0
1 0 0
1 0 0
1 0 0
1 0 0
1 0 0
1 0 0
1 0 0
1 0 0
1 0 0
0 0.018082 0
0 0.018082 0
0 0.018082 0
0 0.018082 0
6.72455e-06 0.0180734 0
0.0199156 0.0156535 0
0.118129 0.0104361 0
0.195408 0.00665727 0
0.267591 0.00335796 0
0.344068 0.00115513 0
0.427386 0.000205029 0
0.519031 1.06538e-05 0
0.619495 0 0
0.716586 0 0
0.800176 0 0
0.879612 0 0
0.941511 0 0
0.985161 0 0
0.99948 0 0
1 0 0
1 0 0
1 0 0
1 0 0
1 0 0
1 0 0
1 0 0
1 0 0
1 0 0
1 0 0
1 0 0
1 0 0
1 0 0
1 0 0
0 0.0899885 0
0 0.0899885 0
0 0.0899885 0
0 0.0899885 0
0 0.0899769 0
0.00353054 0.0866855 0
0.0835164 0.0787634 0
0.170591 0.0704845 0
0.247841 0.0603767 0
0.327741 0.0474967 0
0.413589 0.0319615 0
0.507255 0.0162869 0
0.60965 0.00513872 0
0.710007 0.000709024 0
0.795469 2.30099e-05 0
0.876408 0 0
0.939734 0 0
0.984454 0 0
0.999446 0 0
1 0 0
1 0 0
1 0 0
1 0 0
1 0 0
1 0 0
1 0 0
1 0 0
1 0 0
1 0 0
1 0 0
1 0 0
1 0 0
1 0 0
0 0.1512 0
0 0.1512 0
0 0.1512 0
0 0.1512 0
0 0.151191 0
0.000213495 0.1487 0
0.0469678 0.142677 0
0.142568 0.136396 0
0.226548 0.128593 0
0.310509 0.1182 0
0.3992 0.103876 0
0.495067 0.0841427 0
0.599351 0.0579419 0
0.702273 0.0284779 0
0.790113 0.00747115 0
0.873034 0.000720826 0
0.937843 9.96509e-06 0
0.983599 0 0
0.999395 0 0
1 0 0
1 0 0
1 0 0
1 0 0
1 0 0
1 0 0
1 0 0
1 0 0
1 0 0
1 0 0
1 0 0
1 0 0
1 0 0
1 0 0
0 0.209139 0
0 0.209139 0
0 0.209139 0
0 0.209139 0
0 0.209131 0
2.76443e-06 0.207091 0
0.0158161 0.202235 0
0.103875 0.197204 0
0.198801 0.191049 0
0.288766 0.18298 0
0.381324 0.172116 0
0.480065 0.157372 0
0.586592 0.136837 0
0.691335 0.105179 0
0.781713 0.0615273 0
0.867848 0.0225882 0
0.935195 0.00367579 0
0.982407 0.000131983 0
0.999264 0 0
1 0 0
1 0 0
1 0 0
1 0 0
1 0 0
1 0 0
1 0 0
1 0 0
1 0 0
1 0 0
1 0 0
1 0 0
1 0 0
1 0 0
0 0.270848 0
0 0.270848 0
0 0.270848 0
0 0.270848 0
0 0.270842 0
0 0.26914 0
0.00180905 0.26507 0
0.0531286 0.260903 0
0.158678 0.255828 0
0.259093 0.24923 0
0.357477 0.240465 0
0.46031 0.228822 0
0.569921 0.213053 0
0.677003 0.18758 0
0.770095 0.147937 0
0.859719 0.0978931 0
0.930484 0.0433402 0
0.98026 0.00881176 0
0.998923 0.000453412 0
1 0 0
1 0 0
1 0 0
1 0 0
1 0 0
1 0 0
1 0 0
1 0 0
1 0 0
1 0 0
1 0 0
1 0 0
1 0 0
1 0 0
0 0.338453 0
0 0.338453 0
0 0.338453 0
0 0.338453 0
0 0.338448 0
0 0.336989 0
3.60626e-05 0.333527 0
0.0133592 0.329987 0
0.0986871 0.325695 0
0.215871 0.320146 0
0.324369 0.312821 0
0.433481 0.30319 0
0.54757 0.290223 0
0.657972 0.267669 0
0.754639 0.231771 0
0.848502 0.189101 0
0.922887 0.133646 0
0.975943 0.0677643 0
0.998091 0.0183397 0
1 0.00168108 0
1 1.9398e-05 0
1 0 0
1 0 0
1 0 0
1 0 0
1 0 0
1 0 0
1 0 0
1 0 0
1 0 0
1 0 0
1 0 0
1 0 0
0 0.413224 0
0 0.413224 0
0 0.413224 0
0 0.413224 0
0 0.413219 0
0 0.411967 0
0 0.408995 0
0.000933131 0.405957 0
0.0353818 0.402283 0
0.149127 0.39755 0
0.277104 0.39133 0
0.396683 0.383199 0
0.517525 0.372199 0
0.632741 0.350917 0
0.734175 0.315881 0
0.833392 0.276382 0
0.912533 0.227223 0
0.969492 0.164999 0
0.99668 0.0909231 0
1 0.0283743 0
1 0.00328229 0
1 5.14045e-05 0
1 0 0
1 0 0
1 0 0
1 0 0
1 0 0
1 0 0
1 0 0
1 0 0
1 0 0
1 0 0
1 0 0
0 0.495963 0
0 0.495963 0
0 0.495963 0
0 0.495963 0
0 0.49596 0
0 0.494904 0
0 0.492397 0
4.93768e-06 0.489842 0
0.00450802 0.48676 0
0.0639954 0.482751 0
0.204435 0.477419 0
0.344541 0.470407 0
0.47635 0.460767 0
0.598937 0.4398 0
0.706995 0.404293 0
0.812866 0.365542 0
0.898471 0.318041 0
0.960736 0.260496 0
0.99446 0.191699 0
0.999967 0.110173 0
1 0.0378571 0
1 0.00507249 0
1 0.000109337 0
1 0 0
1 0 0
1 0 0
1 0 0
1 0 0
1 0 0
1 0 0
1 0 0
1 0 0
1 0 0
0 0.57821 0
0 0.57821 0
0 0.57821 0
0 0.57821 0
0 0.578207 0
0 0.577497 0
0 0.575811 0
0 0.574097 0
6.96817e-05 0.572028 0
0.0107001 0.569197 0
0.10229 0.564941 0
0.261604 0.558502 0
0.412613 0.549462 0
0.549034 0.53163 0
0.670043 0.498985 0
0.784823 0.46021 0
0.879048 0.412148 0
0.948117 0.354923 0
0.989671 0.288959 0
0.999746 0.212931 0
1 0.12674 0
1 0.0465651 0
1 0.00689051 0
1 0.000171738 0
1 0 0
1 0 0
1 0 0
1 0 0
1 0 0
1 0 0
1 0 0
1 0 0
1 0 0
0 0.649798 0
0 0.649798 0
0 0.649798 0
0 0.649798 0
0 0.649796 0
0 0.649264 0
0 0.648001 0
0 0.646718 0
0 0.645173 0
0.000258617 0.643164 0
0.0232019 0.640248 0
0.13891 0.635239 0
0.311382 0.627712 0
0.470909 0.616709 0
0.615412 0.596209 0
0.746011 0.561801 0
0.851897 0.512329 0
0.930294 0.453385 0
0.981243 0.386174 0
0.998904 0.311374 0
1 0.230634 0
1 0.14019 0
1 0.0537444 0
1 0.00847661 0
1 0.000225509 0
1 0 0
1 0 0
1 0 0
1 0 0
1 0 0
1 0 0
1 0 0
1 0 0
0 0.725388 0
0 0.725388 0
0 0.725388 0
0 0.725388 0
0 0.725387 0
0 0.724926 0
0 0.723835 0
0 0.722727 0
0 0.721393 0
0 0.719682 0
0.00124431 0.717441 0
0.0363353 0.714178 0
0.174293 0.70879 0
0.361716 0.700821 0
0.532436 0.689347 0
0.687232 0.666401 0
0.81261 0.620186 0
0.905111 0.559004 0
0.966851 0.488503 0
0.995939 0.411135 0
0.999971 0.330658 0
1 0.245249 0
1 0.150992 0
1 0.0599372 0
1 0.0099387 0
1 0.000269468 0
1 0 0
1 0 0
1 0 0
1 0 0
1 0 0
1 0 0
1 0 0
0 0.795126 0
0 0.795126 0
0 0.795126 0
0 0.795126 0
0 0.795125 0
0 0.794813 0
0 0.794075 0
0 0.793326 0
0 0.792423 0
0 0.791266 0
0 0.789759 0
0.0025254 0.787788 0
0.0500592 0.784713 0
0.209474 0.778873 0
0.410295 0.769984 0
0.590909 0.756483 0
0.748703 0.727284 0
0.86778 0.672083 0
0.943989 0.597934 0
0.987738 0.516059 0
0.999493 0.432285 0
1 0.34625 0
1 0.256395 0
1 0.159685 0
1 0.0650887 0
1 0.0111112 0
1 0.000309054 0
1 0 0
1 0 0
1 0 0
1 0 0
1 0 0
1 0 0
0 0.853397 0
0 0.853397 0
0 0.853397 0
0 0.853397 0
0 0.853396 0
0 0.853199 0
0 0.852735 0
0 0.852261 0
0 0.851692 0
0 0.850962 0
0 0.85001 0
0 0.848777 0
0.00378657 0.847133 0
0.0623612 0.844209 0
0.239904 0.838269 0
0.453382 0.829042 0
0.64236 0.814896 0
0.802074 0.781452 0
0.908265 0.714964 0
0.970023 0.628781 0
0.996516 0.539856 0
0.999971 0.44978 0
1 0.358466 0
1 0.265828 0
1 0.167013 0
1 0.0692309 0
1 0.0121978 0
1 0.000332665 0
1 0 0
1 0 0
1 0 0
1 0 0
1 0 0
0 0.897063 0
0 0.897063 0
0 0.897063 0
0 0.897063 0
0 0.897063 0
0 0.896958 0
0 0.896711 0
0 0.896459 0
0 0.896156 0
0 0.89577 0
0 0.895267 0
0 0.894614 0
0 0.893773 0
0.00508847 0.892614 0
0.0740846 0.89009 0
0.267994 0.884283 0
0.490702 0.875115 0
0.685849 0.860275 0
0.841937 0.822719 0
0.93751 0.747634 0
0.985935 0.654821 0
0.999321 0.558964 0
1 0.462927 0
1 0.368379 0
1 0.273151 0
1 0.172277 0
1 0.0727347 0
1 0.0131719 0
1 0.000358832 0
1 0 0
1 0 0
1 0 0
1 0 0
0 0.927921 0
0 0.927921 0
0 0.927921 0
0 0.927921 0
0 0.927921 0
0 0.927862 0
0 0.927723 0
0 0.927582 0
0 0.927412 0
0 0.927196 0
0 0.926913 0
0 0.926549 0
0 0.926081 0
2.9377e-06 0.925476 0
0.00633513 0.924599 0
0.0842047 0.922271 0
0.289834 0.916625 0
0.520157 0.9077 0
0.718215 0.892789 0
0.871522 0.853463 0
0.959136 0.775562 0
0.994283 0.676326 0
0.999903 0.573973 0
1 0.474332 0
1 0.376694 0
1 0.279147 0
1 0.177703 0
1 0.0781917 0
1 0.0160497 0
1 0.000483106 0
1 0 0
1 0 0
1 0 0
0 0.952251 0
0 0.952251 0
0 0.952251 0
0 0.952251 0
0 0.952251 0
0 0.952216 0
0 0.952134 0
0 0.952051 0
0 0.951951 0
0 0.951823 0
0 0.951656 0
0 0.951443 0
0 0.951168 0
0 0.950815 0
1.21328e-05 0.950355 0
0.00765381 0.949598 0
0.0932398 0.947312 0
0.30931 0.941721 0
0.544755 0.932989 0
0.746224 0.91824 0
0.895971 0.878661 0
0.973992 0.797156 0
0.997595 0.692385 0
0.99998 0.586325 0
1 0.483172 0
1 0.382937 0
1 0.284854 0
1 0.188221 0
1 0.0936114 0
1 0.0324815 0
1 0.0250917 0
1 0.0250917 0
1 0.0250917 0
0 0.971227 0
0 0.971227 0
0 0.971227 0
0 0.971227 0
0 0.971227 0
0 0.971208 0
0 0.971162 0
0 0.971116 0
0 0.971061 0
0 0.970991 0
0 0.970899 0
0 0.970781 0
0 0.97063 0
0 0.970436 0
0 0.970179 0
2.79259e-05 0.969811 0
0.00887825 0.969169 0
0.10126 0.967002 0
0.32471 0.961522 0
0.565586 0.952792 0
0.767892 0.93802 0
0.913958 0.897502 0
0.982865 0.81353 0
0.999051 0.706184 0
1 0.596367 0
1 0.490387 0
1 0.389651 0
1 0.298242 0
1 0.218204 0
1 0.155286 0
1 0.145373 0
1 0.145373 0
1 0.145373 0
0 0.985012 0
0 0.985012 0
0 0.985012 0
0 0.985012 0
0 0.985012 0
0 0.984999 0
0 0.98497 0
0 0.984941 0
0 0.984906 0
0 0.98486 0
0 0.984803 0
0 0.984728 0
0 0.984632 0
0 0.984508 0
0 0.984349 0
0 0.984143 0
4.47144e-05 0.983869 0
0.0100022 0.983348 0
0.107464 0.981257 0
0.337493 0.975723 0
0.580709 0.967025 0
0.784159 0.952268 0
0.926766 0.911576 0
0.988221 0.827195 0
0.99955 0.716974 0
1 0.604404 0
1 0.498017 0
1 0.403956 0
1 0.336859 0
1 0.294033 0
1 0.28747 0
1 0.28747 0
1 0.28747 0
0 0.995666 0
0 0.995666 0
0 0.995666 0
0 0.995666 0
0 0.995666 0
0 0.995658 0
0 0.995641 0
0 0.995623 0
0 0.995602 0
0 0.995574 0
0 0.995539 0
0 0.995493 0
0 0.995434 0
0 0.995358 0
0 0.995261 0
0 0.995135 0
0 0.994973 0
6.19457e-05 0.994763 0
0.0109061 0.994321 0
0.113063 0.992282 0
0.347363 0.987049 0
0.593841 0.978633 0
0.797818 0.96407 0
0.936987 0.923423 0
0.99183 0.837519 0
0.999864 0.725657 0
1 0.613004 0
1 0.512253 0
1 0.448425 0
1 0.416057 0
1 0.411268 0
1 0.411268 0
1 0.411268 0
0 0.999807 0
0 0.999807 0
0 0.999807 0
0 0.999807 0
0 0.999807 0
0 0.999806 0
0 0.999803 0
0 0.999799 0
0 0.999796 0
0 0.999791 0
0 0.999785 0
0 0.999777 0
0 0.999767 0
0 0.999754 0
0 0.999738 0
0 0.999716 0
0 0.999688 0
0 0.999653 0
7.43291e-05 0.999602 0
0.0117348 0.999382 0
0.117476 0.998154 0
0.356343 0.994524 0
0.604651 0.987325 0
0.808465 0.973045 0
0.944282 0.931984 0
0.994053 0.845986 0
0.999942 0.73504 0
1 0.627277 0
1 0.560032 0
1 0.533099 0
1 0.529434 0
1 0.529434 0
1 0.529434 0
0 1 0
0 1 0
0 1 0
0 1 0
0 1 0
0 1 0
0 1 0
0 1 0
0 1 0
0 1 0
0 1 0
0 1 0
0 1 0
0 1 0
0 1 0
0 1 0
0 1 0
0 1 0
0 1 0
7.91986e-05 1 0
0.0121204 0.99998 0
0.120617 0.999688 0
0.362679 0.998014 0
0.612597 0.992995 0
0.816594 0.980183 0
0.949994 0.939986 0
0.995408 0.855682 0
0.999972 0.749023 0
1 0.673948 0
1 0.649314 0
1 0.646471 0
1 0.646471 0
1 0.646471 0
0 1 0
0 1 0
0 1 0
0 1 0
0 1 0
0 1 0
0 1 0
0 1 0
0 1 0
0 1 0
0 1 0
0 1 0
0 1 0
0 1 0
0 1 0
0 1 0
0 1 0
0 1 0
0 1 0
0 1 0
7.57414e-05 1 0
0.012451 1 0
0.123546 0.999975 0
0.369059 0.99951 0
0.62094 0.996929 0
0.825946 0.986757 0
0.955976 0.948713 0
0.996861 0.867404 0
0.999994 0.789597 0
1 0.764416 0
1 0.762245 0
1 0.762245 0
1 0.762245 0
0 1 0
0 1 0
0 1 0
0 1 0
0 1 0
0 1 0
0 1 0
0 1 0
0 1 0
