MONITOR LUTS/APPLE LOG_WARM_+1.cube
# Generated by CineMatch
# Date: 24/10/123
# Time: 17:22:5
TITLE "APPLE LOG_WARM_+1.cube"
LUT_3D_SIZE 33
0 0 0
0 0 0
0 0 0
0 0 0
3.7043e-05 0 0
0.0328137 0 0
0.135622 0 0
0.210909 0 0
0.282502 0 0
0.359382 0 0
0.443252 0 0
0.535514 0 0
0.636583 0 0
0.730787 0 0
0.813049 0 0
0.891018 0 0
0.949687 0 0
0.990081 0 0
0.999986 0 0
1 0 0
1 0 0
1 0 0
1 0 0
1 0 0
1 0 0
1 0 0
1 0 0
1 0 0
1 0 0
1 0 0
1 0 0
1 0 0
1 0 0
0 0 0
0 0 0
0 0 0
0 0 0
3.7043e-05 0 0
0.0328137 0 0
0.135622 0 0
0.210909 0 0
0.282502 0 0
0.359382 0 0
0.443252 0 0
0.535514 0 0
0.636583 0 0
0.730787 0 0
0.813049 0 0
0.891018 0 0
0.949687 0 0
0.990081 0 0
0.999986 0 0
1 0 0
1 0 0
1 0 0
1 0 0
1 0 0
1 0 0
1 0 0
1 0 0
1 0 0
1 0 0
1 0 0
1 0 0
1 0 0
1 0 0
0 0 0
0 0 0
0 0 0
0 0 0
3.7043e-05 0 0
0.0328137 0 0
0.135622 0 0
0.210909 0 0
0.282502 0 0
0.359382 0 0
0.443252 0 0
0.535514 0 0
0.636583 0 0
0.730787 0 0
0.813049 0 0
0.891018 0 0
0.949687 0 0
0.990081 0 0
0.999986 0 0
1 0 0
1 0 0
1 0 0
1 0 0
1 0 0
1 0 0
1 0 0
1 0 0
1 0 0
1 0 0
1 0 0
1 0 0
1 0 0
1 0 0
0 0 0
0 0 0
0 0 0
0 0 0
3.7043e-05 0 0
0.0328137 0 0
0.135622 0 0
0.210909 0 0
0.282502 0 0
0.359382 0 0
0.443252 0 0
0.535514 0 0
0.636583 0 0
0.730787 0 0
0.813049 0 0
0.891018 0 0
0.949687 0 0
0.990081 0 0
0.999986 0 0
1 0 0
1 0 0
1 0 0
1 0 0
1 0 0
1 0 0
1 0 0
1 0 0
1 0 0
1 0 0
1 0 0
1 0 0
1 0 0
1 0 0
0 3.32422e-05 0
0 3.32422e-05 0
0 3.32422e-05 0
0 3.32422e-05 0
3.68903e-05 3.32422e-05 0
0.0327626 1.64456e-05 0
0.135575 0 0
0.210874 0 0
0.282474 0 0
0.359358 0 0
0.443232 0 0
0.535496 0 0
0.636568 0 0
0.730777 0 0
0.813043 0 0
0.891014 0 0
0.949684 0 0
0.99008 0 0
0.999986 0 0
1 0 0
1 0 0
1 0 0
1 0 0
1 0 0
1 0 0
1 0 0
1 0 0
1 0 0
1 0 0
1 0 0
1 0 0
1 0 0
1 0 0
0 0.018082 0
0 0.018082 0
0 0.018082 0
0 0.018082 0
5.17731e-06 0.0180754 0
0.0205138 0.0156116 0
0.122511 0.0102229 0
0.201138 0.00636626 0
0.274568 0.00308826 0
0.35274 0.00101095 0
0.437606 0.00016489 0
0.530666 7.39789e-06 0
0.632577 0 0
0.728197 0 0
0.811124 0 0
0.889782 0 0
0.948999 0 0
0.989856 0 0
0.999986 0 0
1 0 0
1 0 0
1 0 0
1 0 0
1 0 0
1 0 0
1 0 0
1 0 0
1 0 0
1 0 0
1 0 0
1 0 0
1 0 0
1 0 0
0 0.0897502 0
0 0.0897502 0
0 0.0897502 0
0 0.0897502 0
0 0.0897413 0
0.00376994 0.0863866 0
0.0886732 0.0781094 0
0.176898 0.0694947 0
0.255279 0.0590452 0
0.336764 0.0456401 0
0.424109 0.0298338 0
0.519148 0.0144221 0
0.623092 0.00409244 0
0.722066 0.000447346 0
0.80655 9.38759e-06 0
0.886839 0 0
0.947368 0 0
0.989314 0 0
0.999985 0 0
1 0 0
1 0 0
1 0 0
1 0 0
1 0 0
1 0 0
1 0 0
1 0 0
1 0 0
1 0 0
1 0 0
1 0 0
1 0 0
1 0 0
0 0.150847 0
0 0.150847 0
0 0.150847 0
0 0.150847 0
0 0.15084 0
0.000239324 0.1483 0
0.052222 0.142004 0
0.149667 0.135461 0
0.234544 0.127372 0
0.319926 0.116414 0
0.410046 0.101429 0
0.507235 0.0808712 0
0.613089 0.0537743 0
0.714742 0.0244158 0
0.801469 0.0054024 0
0.883756 0.000357588 0
0.945613 7.66296e-07 0
0.988625 0 0
0.999983 0 0
1 0 0
1 0 0
1 0 0
1 0 0
1 0 0
1 0 0
1 0 0
1 0 0
1 0 0
1 0 0
1 0 0
1 0 0
1 0 0
1 0 0
0 0.208655 0
0 0.208655 0
0 0.208655 0
0 0.208655 0
0 0.208649 0
3.3007e-06 0.206569 0
0.0191633 0.201494 0
0.112208 0.196255 0
0.207673 0.189879 0
0.298726 0.181395 0
0.392601 0.170054 0
0.492587 0.154682 0
0.600616 0.133094 0
0.704095 0.0994392 0
0.793506 0.0548213 0
0.879047 0.0178619 0
0.943229 0.00220106 0
0.987631 3.16496e-05 0
0.999938 0 0
1 0 0
1 0 0
1 0 0
1 0 0
1 0 0
1 0 0
1 0 0
1 0 0
1 0 0
1 0 0
1 0 0
1 0 0
1 0 0
1 0 0
0 0.27031 0
0 0.27031 0
0 0.27031 0
0 0.27031 0
0 0.270305 0
0 0.268569 0
0.00256779 0.264318 0
0.0616253 0.259981 0
0.169106 0.254728 0
0.269842 0.2478 0
0.369338 0.238671 0
0.473295 0.226573 0
0.58431 0.210038 0
0.69009 0.182664 0
0.782326 0.141232 0
0.87145 0.0897252 0
0.938955 0.0357657 0
0.985828 0.00569218 0
0.999773 0.000134005 0
1 0 0
1 0 0
1 0 0
1 0 0
1 0 0
1 0 0
1 0 0
1 0 0
1 0 0
1 0 0
1 0 0
1 0 0
1 0 0
1 0 0
0 0.337813 0
0 0.337813 0
0 0.337813 0
0 0.337813 0
0 0.337809 0
0 0.336322 0
5.7328e-05 0.332706 0
0.0178389 0.329023 0
0.110266 0.324583 0
0.228137 0.318763 0
0.337198 0.311144 0
0.447185 0.301153 0
0.562511 0.287541 0
0.671538 0.263071 0
0.76745 0.225763 0
0.86086 0.182003 0
0.931818 0.124235 0
0.982075 0.057919 0
0.999344 0.0128454 0
1 0.000732476 0
1 1.33685e-06 0
1 0 0
1 0 0
1 0 0
1 0 0
1 0 0
1 0 0
1 0 0
1 0 0
1 0 0
1 0 0
1 0 0
1 0 0
0 0.412358 0
0 0.412358 0
0 0.412358 0
0 0.412358 0
0 0.412355 0
0 0.411077 0
0 0.407973 0
0.0016219 0.404812 0
0.0427036 0.401012 0
0.164192 0.396048 0
0.291658 0.38958 0
0.411529 0.38115 0
0.533304 0.369546 0
0.647012 0.346182 0
0.747754 0.309874 0
0.846575 0.269703 0
0.922072 0.218742 0
0.976321 0.154571 0
0.998584 0.0791188 0
1 0.0208544 0
1 0.00160808 0
1 6.44629e-06 0
1 0 0
1 0 0
1 0 0
1 0 0
1 0 0
1 0 0
1 0 0
1 0 0
1 0 0
1 0 0
1 0 0
0 0.495001 0
0 0.495001 0
0 0.495001 0
0 0.495001 0
0 0.494998 0
0 0.493919 0
0 0.491298 0
1.06585e-05 0.488637 0
0.00596022 0.485444 0
0.078616 0.48123 0
0.222344 0.475682 0
0.361233 0.468413 0
0.493352 0.45818 0
0.614197 0.434911 0
0.721538 0.398199 0
0.827056 0.358961 0
0.908869 0.309843 0
0.968434 0.251021 0
0.997241 0.180096 0
0.999999 0.0971311 0
1 0.0286502 0
1 0.00271209 0
1 2.60598e-05 0
1 0 0
1 0 0
1 0 0
1 0 0
1 0 0
1 0 0
1 0 0
1 0 0
1 0 0
1 0 0
0 0.577347 0
0 0.577347 0
0 0.577347 0
0 0.577347 0
0 0.577345 0
0 0.576618 0
0 0.57485 0
0 0.57306 0
9.94014e-05 0.570911 0
0.0171386 0.567887 0
0.121113 0.563373 0
0.281894 0.556634 0
0.431664 0.547117 0
0.566441 0.527313 0
0.686148 0.492953 0
0.800268 0.453482 0
0.890666 0.403821 0
0.956721 0.345548 0
0.993642 0.278031 0
0.99999 0.200462 0
1 0.112699 0
1 0.0360197 0
1 0.00393277 0
1 4.92371e-05 0
1 0 0
1 0 0
1 0 0
1 0 0
1 0 0
1 0 0
1 0 0
1 0 0
1 0 0
0 0.649121 0
0 0.649121 0
0 0.649121 0
0 0.649121 0
0 0.64912 0
0 0.648577 0
0 0.64726 0
0 0.645926 0
0 0.644329 0
0.000934231 0.642212 0
0.0323485 0.639087 0
0.16031 0.633745 0
0.333881 0.625874 0
0.49152 0.614109 0
0.634551 0.591748 0
0.763196 0.555237 0
0.865141 0.503845 0
0.939962 0.443911 0
0.98673 0.375285 0
0.999711 0.299548 0
1 0.217605 0
1 0.125592 0
1 0.0424346 0
1 0.0050004 0
1 7.60879e-05 0
1 0 0
1 0 0
1 0 0
1 0 0
1 0 0
1 0 0
1 0 0
1 0 0
0 0.724504 0
0 0.724504 0
0 0.724504 0
0 0.724504 0
0 0.724503 0
0 0.724033 0
0 0.722892 0
0 0.721738 0
0 0.720357 0
0 0.718563 0
0.00236393 0.71622 0
0.0477959 0.712739 0
0.199328 0.706989 0
0.386759 0.698658 0
0.55545 0.686432 0
0.707881 0.660886 0
0.828508 0.611394 0
0.916496 0.548819 0
0.974155 0.476895 0
0.998095 0.398805 0
0.999998 0.31776 0
1 0.231334 0
1 0.13581 0
1 0.0475619 0
1 0.00601542 0
1 9.99637e-05 0
1 0 0
1 0 0
1 0 0
1 0 0
1 0 0
1 0 0
1 0 0
0 0.794373 0
0 0.794373 0
0 0.794373 0
0 0.794373 0
0 0.794372 0
0 0.794053 0
0 0.793279 0
0 0.792496 0
0 0.791559 0
0 0.790342 0
0 0.788771 0
0.00404439 0.78671 0
0.0640766 0.783363 0
0.237663 0.777062 0
0.437695 0.767763 0
0.615763 0.753165 0
0.769659 0.720739 0
0.88215 0.661754 0
0.953209 0.585579 0
0.992038 0.503051 0
0.999889 0.41897 0
1 0.332507 0
1 0.242123 0
1 0.14392 0
1 0.0520787 0
1 0.00688325 0
1 0.000124629 0
1 0 0
1 0 0
1 0 0
1 0 0
1 0 0
1 0 0
0 0.852767 0
0 0.852767 0
0 0.852767 0
0 0.852767 0
0 0.852766 0
0 0.852565 0
0 0.852077 0
0 0.851583 0
0 0.850992 0
0 0.850224 0
0 0.849231 0
0 0.847951 0
0.00569417 0.846213 0
0.0785719 0.842978 0
0.271058 0.836523 0
0.482924 0.826829 0
0.668671 0.81153 0
0.822591 0.7739 0
0.920656 0.702557 0
0.977037 0.614888 0
0.998389 0.525766 0
0.999997 0.435499 0
1 0.344258 0
1 0.251032 0
1 0.150859 0
1 0.0557616 0
1 0.00771545 0
1 0.000142695 0
1 0 0
1 0 0
1 0 0
1 0 0
1 0 0
0 0.896696 0
0 0.896696 0
0 0.896696 0
0 0.896696 0
0 0.896696 0
0 0.896589 0
0 0.896328 0
0 0.896065 0
0 0.895751 0
0 0.895344 0
0 0.894818 0
0 0.89414 0
0 0.893262 0
0.00732902 0.892025 0
0.0921759 0.889166 0
0.301406 0.88281 0
0.521408 0.873177 0
0.712735 0.85698 0
0.861535 0.814368 0
0.948225 0.734156 0
0.990706 0.640025 0
0.999804 0.544014 0
1 0.448314 0
1 0.353787 0
1 0.25815 0
1 0.156121 0
1 0.0590739 0
1 0.0085352 0
1 0.000160263 0
1 0 0
1 0 0
1 0 0
1 0 0
0 0.9276 0
0 0.9276 0
0 0.9276 0
0 0.9276 0
0 0.9276 0
0 0.927539 0
0 0.927394 0
0 0.927247 0
0 0.927071 0
0 0.926843 0
0 0.926548 0
0 0.92617 0
0 0.925682 0
4.6225e-06 0.925052 0
0.0090163 0.924101 0
0.104483 0.921414 0
0.325382 0.91522 0
0.552311 0.905836 0
0.746115 0.889332 0
0.890462 0.844594 0
0.968593 0.761021 0
0.99691 0.660176 0
0.999983 0.558203 0
1 0.45887 0
1 0.361414 0
1 0.263764 0
1 0.161182 0
1 0.0643167 0
1 0.010826 0
1 0.000218319 0
1 0 0
1 0 0
1 0 0
0 0.951985 0
0 0.951985 0
0 0.951985 0
0 0.951985 0
0 0.951985 0
0 0.95195 0
0 0.951864 0
0 0.951777 0
0 0.951673 0
0 0.951539 0
0 0.951364 0
0 0.951142 0
0 0.950855 0
0 0.950487 0
1.85925e-05 0.950005 0
0.010739 0.949168 0
0.115013 0.946516 0
0.346284 0.940388 0
0.578215 0.931185 0
0.774352 0.914861 0
0.914336 0.869509 0
0.981494 0.781824 0
0.998867 0.67567 0
0.999996 0.56986 0
1 0.467158 0
1 0.367468 0
1 0.269385 0
1 0.173047 0
1 0.0791125 0
1 0.0278012 0
1 0.0243941 0
1 0.0243941 0
1 0.0243941 0
0 0.971034 0
0 0.971034 0
0 0.971034 0
0 0.971034 0
0 0.971034 0
0 0.971014 0
0 0.970966 0
0 0.970918 0
0 0.97086 0
0 0.970787 0
0 0.970691 0
0 0.970568 0
0 0.970411 0
0 0.970208 0
0 0.969939 0
4.20936e-05 0.969549 0
0.0123199 0.968831 0
0.12436 0.966296 0
0.363366 0.960255 0
0.599738 0.95106 0
0.796418 0.93463 0
0.931313 0.888103 0
0.988662 0.797949 0
0.999643 0.688801 0
1 0.579286 0
1 0.47418 0
1 0.374115 0
1 0.285095 0
1 0.204396 0
1 0.148196 0
1 0.143548 0
1 0.143548 0
1 0.143548 0
0 0.984866 0
0 0.984866 0
0 0.984866 0
0 0.984866 0
0 0.984866 0
0 0.984853 0
0 0.984823 0
0 0.984793 0
0 0.984756 0
0 0.984708 0
0 0.984648 0
0 0.98457 0
0 0.984471 0
0 0.984342 0
0 0.984177 0
0 0.983962 0
6.66029e-05 0.983675 0
0.0137795 0.983082 0
0.132007 0.9806 0
0.377017 0.974499 0
0.615765 0.965329 0
0.812604 0.948899 0
0.943016 0.902235 0
0.992793 0.811176 0
0.999829 0.699013 0
1 0.587135 0
1 0.481764 0
1 0.391155 0
1 0.326956 0
1 0.289 0
1 0.28592 0
1 0.28592 0
1 0.28592 0
0 0.995566 0
0 0.995566 0
0 0.995566 0
0 0.995566 0
0 0.995566 0
0 0.995558 0
0 0.995539 0
0 0.99552 0
0 0.995498 0
0 0.995469 0
0 0.995432 0
0 0.995384 0
0 0.995323 0
0 0.995243 0
0 0.995141 0
0 0.99501 0
0 0.994841 0
9.14673e-05 0.99462 0
0.0150383 0.994102 0
0.138624 0.99167 0
0.388146 0.985887 0
0.629237 0.976978 0
0.825798 0.960782 0
0.952467 0.913821 0
0.995343 0.821126 0
0.999955 0.70759 0
1 0.595716 0
1 0.498784 0
1 0.440406 0
1 0.412088 0
1 0.409843 0
1 0.409843 0
1 0.409843 0
0 0.999798 0
0 0.999798 0
0 0.999798 0
0 0.999798 0
0 0.999798 0
0 0.999797 0
0 0.999794 0
0 0.99979 0
0 0.999787 0
0 0.999782 0
0 0.999774 0
0 0.999766 0
0 0.999756 0
0 0.999742 0
0 0.999724 0
0 0.999701 0
0 0.999671 0
0 0.999633 0
0.000108869 0.999577 0
0.0160582 0.999298 0
0.143924 0.997808 0
0.397237 0.993694 0
0.639395 0.985878 0
0.836292 0.969763 0
0.958726 0.922387 0
0.996779 0.829875 0
0.99998 0.717292 0
1 0.612643 0
1 0.552691 0
1 0.52999 0
1 0.528274 0
1 0.528274 0
1 0.528274 0
0 1 0
0 1 0
0 1 0
0 1 0
0 1 0
0 1 0
0 1 0
0 1 0
0 1 0
0 1 0
0 1 0
0 1 0
0 1 0
0 1 0
0 1 0
0 1 0
0 1 0
0 1 0
0 1 0
0.000116911 1 0
0.016819 0.999972 0
0.148313 0.999587 0
0.404052 0.997553 0
0.648369 0.991823 0
0.844559 0.976956 0
0.963704 0.930307 0
0.9976 0.839548 0
0.999989 0.732651 0
1 0.66579 0
1 0.646417 0
1 0.645085 0
1 0.645085 0
1 0.645085 0
0 1 0
0 1 0
0 1 0
0 1 0
0 1 0
0 1 0
0 1 0
0 1 0
0 1 0
0 1 0
0 1 0
0 1 0
0 1 0
0 1 0
0 1 0
0 1 0
0 1 0
0 1 0
0 1 0
0 1 0
0.00011261 1 0
0.0173669 1 0
0.151759 0.999966 0
0.41151 0.999352 0
0.656888 0.996224 0
0.85366 0.983887 0
0.968721 0.939245 0
0.998481 0.851941 0
0.999998 0.780506 0
1 0.761908 0
1 0.76089 0
1 0.76089 0
1 0.76089 0
0 1 0
0 1 0
0 1 0
0 1 0
0 1 0
0 1 0
0 1 0
0 1 0
0 1 0
