MONITOR LUTS/APPLE LOG_Neutral_+1.cube
# Generated by CineMatch
# Date: 24/10/123
# Time: 17:19:16
TITLE "APPLE LOG_Neutral_+1.cube"
LUT_3D_SIZE 9
0 0 0
4.81133e-05 0 0
0.275674 0 0
0.623637 0 0
0.942258 0 0
1 0 0
1 0 0
1 0 0
1 0 0
0 3.26641e-05 0
4.79184e-05 3.26641e-05 0
0.275645 0 0
0.623622 0 0
0.942255 0 0
1 0 0
1 0 0
1 0 0
1 0 0
0 0.209139 0
0 0.209131 0
0.198801 0.191049 0
0.586592 0.136837 0
0.935195 0.00367579 0
1 0 0
1 0 0
1 0 0
1 0 0
0 0.495963 0
0 0.49596 0
0.00450802 0.48676 0
0.47635 0.460767 0
0.898471 0.318041 0
1 0.0378571 0
1 0 0
1 0 0
1 0 0
0 0.795126 0
0 0.795125 0
0 0.792423 0
0.0500592 0.784713 0
0.748703 0.727284 0
0.999493 0.432285 0
1 0.0650887 0
1 0 0
1 0 0
0 0.952251 0
0 0.952251 0
0 0.951951 0
0 0.951168 0
0.0932398 0.947312 0
0.895971 0.878661 0
1 0.483172 0
1 0.0936114 0
1 0.0250917 0
0 0.999807 0
0 0.999807 0
0 0.999796 0
0 0.999767 0
0 0.999688 0
0.117476 0.998154 0
0.944282 0.931984 0
1 0.560032 0
1 0.529434 0
0 1 0
0 1 0
0 1 0
0 1 0
0 1 0
0 1 0
0.129076 1 0
0.970161 0.973264 0
1 0.952894 0
0 1 0
0 1 0
0 1 0
0 1 0
0 1 0
0 1 0
0.00745695 1 0
0.915015 1 0
1 1 0
0 0 3.26641e-05
4.81133e-05 0 3.26641e-05
0.27567 0 1.168e-05
0.623635 0 0
0.942257 0 0
1 0 0
1 0 0
1 0 0
1 0 0
0 3.26641e-05 3.24692e-05
4.79184e-05 3.26641e-05 3.24692e-05
0.275642 0 1.168e-05
0.62362 0 0
0.942255 0 0
1 0 0
1 0 0
1 0 0
1 0 0
0 0.209138 0
0 0.209131 0
0.198797 0.191048 0
0.58659 0.136837 0
0.935195 0.00367546 0
1 0 0
1 0 0
1 0 0
1 0 0
0 0.495963 0
0 0.495959 0
0.00450723 0.486759 0
0.476348 0.460767 0
0.898471 0.318041 0
1 0.0378568 0
1 0 0
1 0 0
1 0 0
0 0.795126 0
0 0.795125 0
0 0.792423 0
0.050058 0.784713 0
0.748703 0.727284 0
0.999493 0.432285 0
1 0.0650887 0
1 0 0
1 0 0
0 0.952251 0
0 0.952251 0
0 0.951951 0
0 0.951168 0
0.0932386 0.947312 0
0.895971 0.878662 0
1 0.483172 0
1 0.0936114 0
1 0.0250917 0
0 0.999807 0
0 0.999807 0
0 0.999796 0
0 0.999767 0
0 0.999688 0
0.117476 0.998154 0
0.944282 0.931984 0
1 0.560032 0
1 0.529434 0
0 1 0
0 1 0
0 1 0
0 1 0
0 1 0
0 1 0
0.129076 1 0
0.970161 0.973264 0
1 0.952894 0
0 1 0
0 1 0
0 1 0
0 1 0
0 1 0
0 1 0
0.00745669 1 0
0.915015 1 0
1 1 0
0 0 0.207167
0 0 0.207166
0.267037 0 0.204587
0.619119 0 0.197454
0.940916 0 0.138073
1 0 0.0368362
1 0 9.13203e-05
1 0 0
1 0 0
0 2.34187e-05 0.207161
0 2.32923e-05 0.20716
0.267008 0 0.204581
0.619104 0 0.197448
0.940913 0 0.138068
1 0 0.0368326
1 0 9.1147e-05
1 0 0
1 0 0
0 0.207954 0.19255
0 0.207947 0.192549
0.187794 0.189798 0.189831
0.581832 0.135306 0.182498
0.933824 0.00345801 0.125763
1 0 0.0286468
1 0 3.30675e-05
1 0 0
1 0 0
0 0.4953 0.149999
0 0.495297 0.149998
0.00291444 0.486088 0.146875
0.470644 0.460129 0.138062
0.897064 0.317628 0.0840801
1 0.0374801 0.0112901
1 0 8.92426e-07
1 0 0
1 0 0
0 0.79488 0.0142249
0 0.794879 0.0142245
0 0.79218 0.0129686
0.0470891 0.784518 0.00994378
0.746598 0.727539 0.00369347
0.999479 0.432349 4.70001e-05
1 0.0649099 0
1 0 0
1 0 0
0 0.952231 0
0 0.952231 0
0 0.951931 0
0 0.951148 0
0.0909246 0.947336 0
0.89538 0.878898 0
1 0.483225 0
1 0.093506 0
1 0.0250245 0
0 0.999806 0
0 0.999806 0
0 0.999795 0
0 0.999766 0
0 0.999688 0
0.11624 0.998164 0
0.944113 0.932083 0
1 0.560007 0
1 0.529394 0
0 1 0
0 1 0
0 1 0
0 1 0
0 1 0
0 1 0
0.128538 1 0
0.970117 0.973275 0
1 0.952886 0
0 1 0
0 1 0
0 1 0
0 1 0
0 1 0
0 1 0
0.00725892 1 0
0.914905 1 0
1 1 0
0 0 0.492484
0 0 0.492484
0.243459 0 0.491104
0.60716 0 0.486965
0.937073 0 0.394614
1 0 0.235879
1 0 0.0805786
1 0 0.00158961
1 0 5.19023e-05
0 1.31732e-06 0.492481
0 1.31732e-06 0.492481
0.243427 0 0.491101
0.607144 0 0.486962
0.937071 0 0.394613
1 0 0.235878
1 0 0.0805772
1 0 0.00158939
1 0 5.16799e-05
0 0.204868 0.484814
0 0.20486 0.484814
0.156616 0.186512 0.48342
0.569191 0.13122 0.479553
0.929806 0.0029143 0.391622
1 0 0.232394
1 0 0.0771926
1 0 0.00131474
1 0 7.16492e-06
0 0.493478 0.463866
0 0.493474 0.463865
0.000850158 0.484236 0.462612
0.455288 0.458286 0.458379
0.892437 0.316047 0.373186
1 0.0364424 0.222035
1 0 0.068125
1 0 0.000772715
1 0 0
0 0.792643 0.334226
0 0.792642 0.334226
0 0.789983 0.333783
0.0384901 0.78236 0.332328
0.739429 0.726594 0.310522
0.999397 0.431898 0.179561
1 0.0644051 0.0418726
1 0 0.000108583
1 0 0
0 0.951826 0.0785701
0 0.951826 0.0785696
0 0.95153 0.0774637
0 0.950757 0.0745821
0.086178 0.947086 0.0664491
0.893644 0.879322 0.0378303
1 0.483352 0.00198432
1 0.0932312 0
1 0.0248492 0
0 0.999804 0
0 0.999804 0
0 0.999793 0
0 0.999764 0
0 0.999686 0
0.113038 0.99819 0
0.943671 0.932343 0
1 0.559942 0
1 0.529288 0
0 1 0
0 1 0
0 1 0
0 1 0
0 1 0
0 1 0
0.127131 1 0
0.969999 0.973306 0
1 0.952864 0
0 1 0
0 1 0
0 1 0
0 1 0
0 1 0
0 1 0
0.00675121 1 0
0.914618 1 0
1 1 0
0 0 0.859834
0 0 0.859833
0.150964 0 0.857523
0.52552 0 0.847897
0.925796 0 0.776598
1 0 0.519488
1 0 0.278095
1 0 0.132156
1 0 0.11809
0 0 0.859833
0 0 0.859832
0.150926 0 0.857522
0.525506 0 0.847896
0.925793 0 0.776599
1 0 0.519488
1 0 0.278094
1 0 0.132156
1 0 0.118089
0 0.176175 0.850245
0 0.176168 0.850245
0.0527171 0.158595 0.849937
0.486645 0.103489 0.842628
0.917779 0.00182598 0.77905
1 0 0.519612
1 0 0.276986
1 0 0.130573
1 0 0.116384
0 0.439045 0.825055
0 0.439042 0.825056
8.59543e-07 0.430874 0.825278
0.366683 0.40546 0.820468
0.877404 0.310707 0.768242
1 0.0336587 0.518613
1 0 0.274031
1 0 0.1264
1 0 0.111909
0 0.780961 0.738963
0 0.78096 0.738963
0 0.778039 0.739776
0.0175935 0.769906 0.741591
0.715254 0.719896 0.720251
0.998996 0.430277 0.495528
1 0.0629715 0.263884
1 0 0.114473
1 0 0.0991836
0 0.948951 0.450995
0 0.948951 0.450995
0 0.948641 0.451215
0 0.94783 0.451804
0.0750696 0.944357 0.452519
0.886601 0.878265 0.415565
1 0.482845 0.220206
1 0.0924029 0.0775218
1 0.0243497 0.0614264
0 0.999644 0.116852
0 0.999644 0.116852
0 0.999633 0.116445
0 0.999605 0.115366
0 0.999528 0.112328
0.105743 0.99804 0.10327
0.942216 0.932753 0.0646382
1 0.559734 0.00531561
1 0.528985 0.00220997
0 1 0
0 1 0
0 1 0
0 1 0
0 1 0
0 1 0
0.123357 1 0
0.969676 0.973391 0
1 0.952801 0
0 1 0
0 1 0
0 1 0
0 1 0
0 1 0
0 1 0
0.00537295 1 0
0.913825 1 0
1 1 0
0 0 1
0 0 1
0.00122 0 1
0.318614 0 1
0.748505 0 0.999961
0.999938 0 0.926548
1 0 0.574665
1 0 0.36186
1 0 0.354812
0 0 1
0 0 1
0.00121795 0 1
0.3186 0 1
0.748499 0 0.999961
0.999938 0 0.926549
1 0 0.574665
1 0 0.361859
1 0 0.354812
0 0.0992455 1
0 0.0992396 1
6.95648e-06 0.0841008 1
0.282436 0.0416991 1
0.734157 0.000199098 0.999963
0.999913 0 0.928439
1 0 0.574954
1 0 0.361064
1 0 0.354002
0 0.317543 0.999994
0 0.317541 0.999994
0 0.310885 0.999995
0.1625 0.291578 0.99999
0.682307 0.228442 0.999663
0.999792 0.0262136 0.932612
1 0 0.575713
1 0 0.358978
1 0 0.351875
0 0.614916 0.995952
0 0.614914 0.995952
0 0.611735 0.996059
0.000782304 0.603296 0.996337
0.521632 0.567896 0.993428
0.99468 0.423608 0.923151
1 0.0590373 0.575219
1 0 0.353196
1 0 0.345975
0 0.933864 0.893545
0 0.933864 0.893546
0 0.933299 0.894173
0 0.931807 0.895822
0.037539 0.927005 0.89989
0.860349 0.869211 0.868741
1 0.48122 0.549968
1 0.0900459 0.334514
1 0.0229112 0.328688
0 0.998837 0.503006
0 0.998837 0.503006
0 0.998819 0.503156
0 0.998766 0.503551
0 0.998601 0.504652
0.0926377 0.996778 0.50639
0.936228 0.931722 0.461493
1 0.558097 0.267482
1 0.527123 0.259869
0 1 0.138214
0 1 0.138214
0 1 0.13805
0 1 0.137621
0 1 0.136435
0 1 0.133119
0.114341 1 0.123097
0.968645 0.97343 0.0819137
1 0.952381 0.0687252
0 1 0.0704191
0 1 0.0704191
0 1 0.0702242
0 1 0.0697156
0 1 0.0683168
0 1 0.0643797
0.00210834 1 0.0539462
0.911529 1 0.0281063
1 1 0.0219129
0 0 1
0 0 1
0 0 1
0.0193593 0 1
0.398789 0 1
0.845929 0 1
1 0 0.965375
1 0 0.709088
1 0 0.705101
0 0 1
0 0 1
0 0 1
0.0193541 0 1
0.398784 0 1
0.845927 0 1
1 0 0.965376
1 0 0.709088
1 0 0.705101
0 0.013468 1
0 0.0134658 1
0 0.00879939 1
0.00926381 0.00182377 1
0.386039 0 1
0.841138 0 1
1 0 0.965957
1 0 0.708648
1 0 0.704651
0 0.165043 1
0 0.165041 1
0 0.160054 1
0.000557899 0.14647 1
0.34785 0.10213 1
0.827854 0.00541158 1
1 0 0.96749
1 0 0.707496
1 0 0.703476
0 0.385341 1
0 0.38534 1
0 0.382843 1
0 0.376231 1
0.219947 0.355174 1
0.771444 0.286294 1
1 0.0484722 0.970835
1 0 0.704315
1 0 0.700231
0 0.697091 1
0 0.69709 1
0 0.695916 1
0 0.692833 1
0.00191191 0.684182 1
0.594141 0.643764 1
0.999588 0.47395 0.96383
1 0.0837248 0.691586
1 0.019583 0.690246
0 0.985017 0.944809
0 0.985017 0.944809
0 0.984882 0.945044
0 0.98453 0.945657
0 0.98354 0.947354
0.0488382 0.979948 0.951516
0.911874 0.922298 0.921437
1 0.553439 0.630965
1 0.521764 0.626886
0 1 0.542253
0 1 0.542253
0 1 0.542288
0 1 0.542379
0 1 0.542632
0 1 0.543342
0.0997023 1 0.543975
0.96477 0.972639 0.50128
1 0.949676 0.481959
0 1 0.493675
0 1 0.493675
0 1 0.493592
0 1 0.493374
0 1 0.492774
0 1 0.491121
0 1 0.486541
0.90313 1 0.452415
1 1 0.442287
0 0 1
0 0 1
0 0 1
0 0 1
0.0358764 0 1
0.438724 0 1
0.892926 0 1
1 0 0.999936
1 0 0.999923
0 0 1
0 0 1
0 0 1
0 0 1
0.0358735 0 1
0.438722 0 1
0.892925 0 1
1 0 0.999936
1 0 0.999923
0 6.53503e-07 1
0 6.53503e-07 1
0 0 1
0 0 1
0.0289459 0 1
0.433982 0 1
0.891309 0 1
1 0 0.999935
1 0 0.999922
0 0.0368625 1
0 0.0368612 1
0 0.0339041 1
0 0.0265264 1
0.0153734 0.0104577 1
0.421353 4.84313e-05 1
0.887028 0 1
1 0 0.999931
1 0 0.999918
0 0.194568 1
0 0.194567 1
0 0.192768 1
0 0.188017 1
0.00104247 0.174442 1
0.380904 0.130055 1
0.874087 0.0114771 1
1 0 0.999921
1 0 0.999908
0 0.420182 1
0 0.420182 1
0 0.419244 1
0 0.416784 1
0 0.409933 1
0.247858 0.387795 1
0.817632 0.315624 1
1 0.0681193 0.99987
1 0.0129093 0.999874
0 0.742063 1
0 0.742063 1
0 0.741625 1
0 0.740477 1
0 0.737299 1
0.00244284 0.728363 1
0.633997 0.685741 1
0.999989 0.539448 0.997319
1 0.507472 0.99705
0 0.997987 0.976207
0 0.997987 0.976207
0 0.997969 0.976255
0 0.997921 0.976381
0 0.997791 0.97673
0 0.997427 0.97764
0.0534286 0.996055 0.979405
0.946479 0.964999 0.96117
0.999998 0.942301 0.945936
0 1 0.956904
0 1 0.956904
0 1 0.956879
0 1 0.956816
0 1 0.956642
0 1 0.956161
0 1 0.954831
0.878625 1 0.92956
0.999986 1 0.920944
0 0 1
0 0 1
0 0 1
0 0 1
0.00232453 0 1
0.384779 0 1
0.848695 0 1
1 0 1
1 0 1
0 0 1
0 0 1
0 0 1
0 0 1
0.0023236 0 1
0.384777 0 1
0.848694 0 1
1 0 1
1 0 1
0 0 1
0 0 1
0 0 1
0 0 1
0.00104659 0 1
0.379868 0 1
0.846774 0 1
1 0 1
1 0 1
0 0.0229043 1
0 0.0229032 1
0 0.020567 1
0 0.0148101 1
0 0.00443211 1
0.36678 2.95454e-06 1
0.841684 0 1
1 0 1
1 0 1
0 0.174936 1
0 0.174936 1
0 0.173173 1
0 0.168483 1
0 0.155132 1
0.32579 0.111877 1
0.826675 0.00739433 1
1 0 1
1 0 1
0 0.392557 1
0 0.392556 1
0 0.391633 1
0 0.389214 1
0 0.382486 1
0.187257 0.361676 1
0.766492 0.292857 1
1 0.0635927 1
1 0.0115015 1
0 0.70176 1
0 0.701759 1
0 0.701304 1
0 0.700112 1
0 0.696817 1
0.000295149 0.68761 1
0.582024 0.647608 1
0.99995 0.533025 1
1 0.50367 1
0 0.993638 1
0 0.993638 1
0 0.993573 1
0 0.993403 1
0 0.992932 1
0 0.991622 1
0.0375363 0.987437 1
0.92986 0.951844 1
0.999986 0.940092 1
0 1 1
0 1 1
0 1 1
0 1 1
0 1 1
0 1 1
0 1 1
0.870479 1 1
0.999937 1 1
