MONITOR LUTS/APPLE LOG_WARM_+1.cube
# Generated by CineMatch
# Date: 24/10/123
# Time: 17:22:5
TITLE "APPLE LOG_WARM_+1.cube"
LUT_3D_SIZE 5
0 0 0
0.282502 0 0
0.949687 0 0
1 0 0
1 0 0
0 0.208655 0
0.207673 0.189879 0
0.943229 0.00220106 0
1 0 0
1 0 0
0 0.794373 0
0 0.791559 0
0.769659 0.720739 0
1 0.0520787 0
1 0 0
0 0.999798 0
0 0.999787 0
0 0.999671 0
0.958726 0.922387 0
1 0.528274 0
0 1 0
0 1 0
0 1 0
0.0109689 1 0
1 1 0
0 0 0.189288
0.274977 0 0.186455
0.948575 0 0.118107
1 0 4.24561e-06
1 0 0
0 0.207601 0.173798
0.198239 0.188765 0.170794
0.942104 0.00206511 0.104611
1 0 6.39679e-07
1 0 0
0 0.794184 0.00556123
0 0.791372 0.00484809
0.767953 0.721013 0.000708944
1 0.0519312 0
1 0 0
0 0.999798 0
0 0.999786 0
0 0.99967 0
0.958607 0.922483 0
1 0.528238 0
0 1 0
0 1 0
0 1 0
0.0107103 1 0
1 1 0
0 0 0.824728
0.178243 0 0.82164
0.93626 0 0.718739
1 0 0.244792
1 0 0.0943381
0 0.181984 0.813292
0.0786157 0.163461 0.812676
0.929205 0.00109773 0.720835
1 0 0.243492
1 0 0.0924596
0 0.784758 0.689454
0 0.781951 0.690392
0.744244 0.717259 0.66606
1 0.0503797 0.228772
1 0 0.0736454
0 0.999674 0.0763757
0 0.999662 0.0759317
0 0.99955 0.071448
0.957339 0.923266 0.0300508
1 0.527884 0.000215292
0 1 0
0 1 0
0 1 0
0.00825119 1 0
1 1 0
0 0 1
0 0 1
0.455382 0 1
1 0 0.922761
1 0 0.6553
0 0.019687 1
0 0.0132594 1
0.442908 2.03705e-08 1
1 0 0.923581
1 0 0.654817
0 0.410998 1
0 0.408312 1
0.281694 0.377663 1
1 0.0392017 0.930381
1 0 0.650073
0 0.991648 0.904451
0 0.991561 0.904771
0 0.99069 0.907929
0.938569 0.919265 0.867647
1 0.521549 0.576684
0 1 0.442227
0 1 0.442133
0 1 0.441204
2.36572e-06 1 0.434115
1 1 0.390912
0 0 1
0 0 1
0.00324143 0 1
0.865419 0 1
1 0 1
0 0 1
0 0 1
0.00146412 0 1
0.863617 0 1
1 0 1
0 0.174415 1
0 0.172585 1
0 0.153833 1
0.844812 0.00517057 1
1 0 1
0 0.700885 1
0 0.700413 1
0 0.695757 1
0.608217 0.644149 1
1 0.502498 1
0 1 1
0 1 1
0 1 1
0 1 1
0.999937 1 1
