MONITOR LUTS/APPLE LOG_WARM_-1.cube
# Generated by CineMatch
# Date: 24/10/123
# Time: 17:21:49
TITLE "APPLE LOG_WARM_-1.cube"
LUT_3D_SIZE 5
0 0 0
0.0964405 0 0
0.539362 0 0
1 0 0
1 0 0
0 0.0592099 0
0.0588114 0.0504732 0
0.527897 0.00199702 0
1 0 0
1 0 0
0 0.415532 0
0 0.412466 0
0.414623 0.384142 0
1 0.043373 0
1 0 0
0 0.916399 0
0 0.916221 0
0 0.914631 0
0.879263 0.832945 0
1 0.0654992 0
0 1 0
0 1 0
0 1 0
0 1 0
0.972458 0.944715 0
0 0 0.0512792
0.092388 0 0.0500119
0.53808 0 0.0386777
1 0 0.00015613
1 0 0
0 0.0586954 0.0444891
0.0544886 0.0499538 0.0432152
0.526593 0.00192698 0.0323319
1 0 7.72136e-05
1 0 0
0 0.415352 0.00393631
0 0.412284 0.00361712
0.413025 0.38395 0.00158121
1 0.0432439 0
1 0 0
0 0.916388 0
0 0.916211 0
0 0.914621 0
0.879066 0.833031 0
1 0.0654734 0
0 1 0
0 1 0
0 1 0
0 1 0
0.972443 0.944728 0
0 0 0.382544
0.0552099 0 0.38207
0.526839 0 0.377796
1 0 0.207498
1 0 0.000640083
0 0.0542596 0.379988
0.0216798 0.0454575 0.379509
0.515143 0.00135716 0.375209
1 0 0.206093
1 0 0.000595879
0 0.413788 0.356639
0 0.410707 0.356133
0.398939 0.382282 0.351619
1 0.0420047 0.191949
1 0 0.000256442
0 0.916017 0.0610382
0 0.915841 0.0606274
0 0.914264 0.0569488
0.877219 0.833622 0.0254226
1 0.0652515 0
0 1 0
0 1 0
0 1 0
0 1 0
0.972314 0.944843 0
0 0 0.987316
0 0 0.987293
0.3498 0 0.983549
1 0 0.834458
1 0 0.267647
0 0.0138773 0.986716
0 0.00998535 0.986789
0.338509 2.52407e-05 0.983531
1 0 0.835228
1 0 0.267435
0 0.317403 0.974178
0 0.314912 0.97427
0.211543 0.290343 0.973027
0.999389 0.0329497 0.840339
1 0 0.265541
0 0.905178 0.80892
0 0.904958 0.809198
0 0.902912 0.81164
0.854271 0.829553 0.774773
1 0.0633425 0.249009
0 1 0.0917872
0 1 0.0917166
0 1 0.0910855
0 1 0.0863648
0.971245 0.945538 0.038915
0 0 1
0 0 1
0 0 1
0.491414 0 1
1 0 0.950657
0 0 1
0 0 1
0 0 1
0.489622 0 1
1 0 0.950699
0 0.0563435 1
0 0.0549882 1
0 0.0429563 1
0.473352 0.000313969 1
1 0 0.95107
0 0.439192 1
0 0.438804 1
0 0.435313 1
0.308926 0.40389 1
1 0.0499492 0.952616
0 0.99863 0.92463
0 0.998626 0.924671
0 0.998586 0.925042
0 0.998179 0.92786
0.956426 0.942109 0.892047
