MONITOR LUTS/APPLE LOG_COOL_-1.cube
# Generated by CineMatch
# Date: 24/10/123
# Time: 17:20:13
TITLE "APPLE LOG_COOL_-1.cube"
LUT_3D_SIZE 9
0 0 0
0.00756866 0 0
0.088862 0 0
0.252098 0 0
0.510848 0 0
0.844789 0 0
1 0 0
1 0 0
1 0 0
0 0.00401106 0
0.00600629 0.00371114 0
0.0840837 0.00200108 0
0.249504 0.000248132 0
0.509323 0 0
0.844278 0 0
1 0 0
1 0 0
1 0 0
0 0.0598596 0
0.000538967 0.058733 0
0.0506598 0.0517424 0
0.231198 0.033278 0
0.498754 0.00330266 0
0.840732 0 0
1 0 0
1 0 0
1 0 0
0 0.198493 0
0 0.197821 0
0.00216434 0.193671 0
0.175135 0.182053 0
0.469086 0.147026 0
0.829462 0.0277731 0
0.999986 0 0
1 0 0
1 0 0
0 0.41813 0
0 0.417733 0
0 0.415294 0
0.012718 0.408598 0
0.377536 0.389662 0
0.785855 0.301212 0
0.99928 0.0684477 0
1 0 0
1 0 0
0 0.705941 0
0 0.705786 0
0 0.704825 0
0 0.70221 0
0.0397021 0.694489 0
0.637531 0.655617 0
0.985405 0.432393 0
1 0.0914472 0
1 0 0
0 0.917567 0
0 0.917545 0
0 0.917406 0
0 0.917032 0
0 0.915994 0
0.0638907 0.912073 0
0.831981 0.855836 0
1 0.497387 0
1 0.102216 0
0 0.991799 0
0 0.991795 0
0 0.991775 0
0 0.991722 0
0 0.991577 0
0 0.991176 0
0.08002 0.988755 0
0.908274 0.932645 0
1 0.529087 0
0 1 0
0 1 0
0 1 0
0 1 0
0 1 0
0 1 0
0 1 0
0.085733 0.999998 0
0.940052 0.967043 0
0 0 0.00333714
0.00737719 0 0.00329598
0.0883558 0 0.00305324
0.251823 0 0.00240668
0.510685 0 0.00113919
0.844734 0 6.68426e-05
1 0 0
1 0 0
1 0 0
0 0.00399482 0.0031302
0.00584059 0.00369466 0.00309043
0.0835733 0.00198812 0.00284898
0.249227 0.000245959 0.00220608
0.50916 0 0.00106799
0.844223 0 6.01678e-05
1 0 0
1 0 0
1 0 0
0 0.0597971 0.00177668
0.000514072 0.058671 0.0017463
0.0501503 0.0516797 0.00157249
0.230906 0.0332208 0.00121652
0.498588 0.00328914 0.000629204
0.840676 0 2.57871e-05
1 0 0
1 0 0
1 0 0
0 0.198455 0.000337337
0 0.197784 0.000327646
0.00209901 0.193634 0.000278247
0.174781 0.182015 0.000169581
0.468912 0.146981 5.80472e-05
0.829403 0.0277435 0
0.999986 0 0
1 0 0
1 0 0
0 0.418107 0
0 0.417713 0
0 0.415273 0
0.0125767 0.408576 0
0.377327 0.38964 0
0.785788 0.3012 0
0.99928 0.0684281 0
1 0 0
1 0 0
0 0.705933 0
0 0.705777 0
0 0.704816 0
0 0.702201 0
0.0395785 0.694482 0
0.637433 0.655619 0
0.985398 0.432396 0
1 0.0914387 0
1 0 0
0 0.917566 0
0 0.917543 0
0 0.917405 0
0 0.91703 0
0 0.915992 0
0.0638215 0.912074 0
0.831948 0.855844 0
1 0.49739 0
1 0.102212 0
0 0.991798 0
0 0.991795 0
0 0.991775 0
0 0.991722 0
0 0.991577 0
0 0.991176 0
0.079974 0.988756 0
0.908264 0.932649 0
1 0.529088 0
0 1 0
0 1 0
0 1 0
0 1 0
0 1 0
0 1 0
0 1 0
0.085713 0.999998 0
0.940048 0.967044 0
0 0 0.0707129
0.00554755 0 0.0705506
0.0835118 0 0.0695491
0.249182 0 0.0668347
0.509129 0 0.0591999
0.844065 0 0.0307208
1 0 0.00162719
1 0 0
1 0 0
0 0.00383425 0.0698552
0.00430265 0.0035344 0.0696932
0.0786687 0.00187785 0.0686912
0.246564 0.000225697 0.0659698
0.507599 0 0.0583171
0.843555 0 0.0300758
1 0 0.0015544
1 0 0
1 0 0
0 0.0592003 0.063911
0.000294624 0.0580762 0.0637462
0.0453168 0.0510767 0.0627261
0.228095 0.0326739 0.0599473
0.497001 0.00316386 0.0523073
0.840013 0 0.025717
1 0 0.00109457
1 0 0
1 0 0
0 0.198101 0.0476164
0 0.197428 0.0474532
0.0015402 0.193275 0.0464474
0.171359 0.181642 0.0437219
0.467241 0.146555 0.0364329
0.828755 0.0274556 0.0153114
0.999982 0 0.000360138
1 0 0
1 0 0
0 0.417899 0.011894
0 0.417504 0.0118078
0 0.415063 0.0112815
0.0113333 0.408364 0.00994841
0.375332 0.389419 0.00681584
0.785133 0.301082 0.00155436
0.999273 0.0682421 4.63435e-06
1 0 0
1 0 0
0 0.705851 0
0 0.705695 0
0 0.704734 0
0 0.702118 0
0.0383929 0.694411 0
0.636493 0.655633 0
0.985328 0.432415 0
1 0.0913598 0
1 0 0
0 0.917554 0
0 0.917532 0
0 0.917393 0
0 0.917018 0
0 0.915981 0
0.0631704 0.912078 0
0.831636 0.855923 0
1 0.497414 0
1 0.10218 0
0 0.991796 0
0 0.991793 0
0 0.991774 0
0 0.991721 0
0 0.991575 0
0 0.991174 0
0.0795347 0.988761 0
0.908167 0.932683 0
1 0.529097 0
0 1 0
0 1 0
0 1 0
0 1 0
0 1 0
0 1 0
0 1 0
0.0855225 0.999998 0
0.940017 0.967056 0
0 0 0.221492
0.00241894 0 0.221402
0.0702633 0 0.220849
0.242037 0 0.219323
0.50496 0 0.215083
0.842108 0 0.179579
1 0 0.0906906
1 0 0.00591477
1 0 0
0 0.00341326 0.221013
0.00178028 0.00311379 0.220923
0.0653383 0.00162412 0.220367
0.239367 0.000171692 0.218842
0.503421 0 0.214591
0.841593 0 0.179185
1 0 0.0903223
1 0 0.00583159
1 0 0
0 0.0576282 0.217703
6.66303e-05 0.0565004 0.217612
0.0332337 0.0494717 0.217047
0.220486 0.0312242 0.215499
0.492749 0.00282991 0.211193
0.838018 0 0.176452
1 0 0.0877618
1 0 0.00529305
1 0 0
0 0.197155 0.208494
0 0.196484 0.208399
0.000623861 0.192318 0.207819
0.162007 0.180645 0.206226
0.462766 0.145407 0.201795
0.826708 0.0266741 0.168379
0.999946 0 0.0805933
1 0 0.00399427
1 0 0
0 0.417344 0.181504
0 0.416948 0.181401
0 0.414502 0.180761
0.00852011 0.4078 0.179016
0.369975 0.388831 0.174133
0.782909 0.300535 0.140975
0.999235 0.0676952 0.0589992
1 0 0.00155632
1 0 0
0 0.705381 0.0748664
0 0.705226 0.074756
0 0.704265 0.0740722
0 0.701652 0.0722334
0.0350992 0.693986 0.0670662
0.63381 0.655507 0.0502037
0.985105 0.432424 0.0102372
1 0.0911498 3.13432e-05
1 0 0
0 0.917522 3.49316e-06
0 0.9175 3.26089e-06
0 0.917362 2.72205e-06
0 0.916987 1.8288e-06
0 0.915949 1.422e-06
0.0615856 0.912085 5.10254e-07
0.830802 0.856132 0
1 0.49748 0
1 0.102093 0
0 0.991792 0
0 0.991789 0
0 0.991769 0
0 0.991717 0
0 0.991571 0
0 0.99117 0
0.0783757 0.988774 0
0.90791 0.932775 0
1 0.529124 0
0 1 0
0 1 0
0 1 0
0 1 0
0 1 0
0 1 0
0 1 0
0.0850145 0.999998 0
0.939933 0.967088 0
0 0 0.459121
7.0488e-05 0 0.459068
0.0346075 0 0.458734
0.221505 0 0.457836
0.493316 0 0.455354
0.836636 0 0.405866
0.999992 0 0.278035
1 0 0.123604
1 0 0.00930317
0 0.00227207 0.458836
4.43e-05 0.00205013 0.458783
0.0306244 0.00113887 0.45845
0.218659 9.05216e-05 0.457552
0.491746 0 0.455067
0.836108 0 0.40574
0.999989 0 0.277904
1 0 0.123467
1 0 0.00926022
0 0.0532466 0.456878
0 0.0521032 0.456824
0.00986163 0.0450635 0.456492
0.198459 0.0273647 0.455594
0.480863 0.00205663 0.453098
0.832449 0 0.404873
0.999953 0 0.277003
1 0 0.122523
1 0 0.00897489
0 0.194551 0.451545
0 0.193875 0.451491
2.57908e-05 0.189663 0.451156
0.134238 0.17788 0.450246
0.450236 0.14221 0.447725
0.821003 0.0245268 0.401756
0.999826 0 0.274516
1 0 0.119919
1 0 0.008217
0 0.415814 0.43655
0 0.415417 0.436494
0 0.412963 0.436148
0.00324242 0.40624 0.435216
0.354868 0.38721 0.432627
0.776603 0.298964 0.38682
0.999108 0.0661199 0.265801
1 0 0.112483
1 0 0.00635871
0 0.703451 0.35239
0 0.703302 0.352372
0 0.702361 0.352255
0 0.699733 0.351901
0.0257871 0.692115 0.350759
0.625603 0.654392 0.337896
0.983944 0.431791 0.230998
1 0.0904719 0.0887083
1 0 0.00262775
0 0.91677 0.145215
0 0.916748 0.145172
0 0.91661 0.144901
0 0.916236 0.144163
0 0.915203 0.142101
0.0579807 0.911422 0.135912
0.827965 0.856172 0.106061
1 0.49757 0.0203697
1 0.101852 4.2323e-05
0 0.991779 1.6655e-05
0 0.991776 1.6655e-05
0 0.991757 1.63842e-05
0 0.991704 1.57262e-05
0 0.991558 1.37628e-05
0 0.991158 8.16241e-06
0.0755578 0.988811 4.76593e-07
0.907197 0.933027 0
1 0.529195 0
0 1 0
0 1 0
0 1 0
0 1 0
0 1 0
0 1 0
0 1 0
0.0836273 0.999998 0
0.939701 0.967176 0
0 0 0.809589
0 0 0.809568
0.000341263 0 0.809438
0.146769 0 0.807105
0.434888 0 0.799074
0.817439 0 0.763473
0.999679 0 0.566348
1 0 0.326816
1 0 0.139703
0 0.000735522 0.809397
0 0.000646802 0.809387
0.000255327 0.000214317 0.809308
0.143307 9.03941e-06 0.807046
0.433365 0 0.799021
0.816826 0 0.763495
0.999672 0 0.56637
1 0 0.326775
1 0 0.139652
0 0.0371844 0.806742
0 0.036187 0.80676
1.04161e-05 0.0301534 0.806868
0.118125 0.0160165 0.80558
0.422727 0.000666836 0.79858
0.812585 0 0.763649
0.999623 0 0.566524
1 0 0.326492
1 0 0.1393
0 0.174855 0.798536
0 0.174204 0.798555
0 0.170157 0.798675
0.0481309 0.158572 0.798261
0.38933 0.12183 0.791952
0.799814 0.018592 0.763136
0.999491 0 0.566937
1 0 0.325713
1 0 0.138338
0 0.38102 0.776327
0 0.380667 0.776338
0 0.378486 0.776409
5.82508e-05 0.372498 0.776606
0.285271 0.35306 0.772712
0.751296 0.290629 0.751124
0.998592 0.0618384 0.565501
1 0 0.323524
1 0 0.135659
0 0.689233 0.721275
0 0.689065 0.72129
0 0.688025 0.72138
0 0.685187 0.72163
0.0103032 0.676947 0.722024
0.59385 0.642101 0.710973
0.980329 0.429989 0.544884
1 0.0885218 0.314731
1 0 0.128003
0 0.913582 0.492829
0 0.913559 0.492843
0 0.913415 0.492931
0 0.913026 0.493169
0 0.911948 0.493841
0.0472622 0.90823 0.49521
0.818347 0.8546 0.468087
1 0.49691 0.275935
1 0.101074 0.103233
0 0.990932 0.180595
0 0.990929 0.18058
0 0.99091 0.180485
0 0.990858 0.180227
0 0.990715 0.17951
0 0.990321 0.177511
0.0697276 0.988125 0.171308
0.904627 0.933086 0.135449
1 0.529279 0.0262701
0 1 1.91406e-05
0 1 1.91406e-05
0 1 1.90663e-05
0 1 1.88729e-05
0 1 1.81916e-05
0 1 1.65399e-05
0 1 1.18494e-05
0.0800865 0.999998 2.85266e-06
0.939062 0.967419 0
0 0 1
0 0 1
0 0 1
0.00198948 0 1
0.257071 0 0.999861
0.633039 0 0.998987
0.993165 0 0.960637
1 0 0.64486
1 0 0.351676
0 1.58258e-06 1
0 1.20341e-06 1
0 0 1
0.00173266 0 1
0.255502 0 0.999861
0.632335 0 0.998986
0.993116 0 0.960709
1 0 0.644887
1 0 0.35166
0 0.00693664 1
0 0.00661267 1
0 0.00478747 1
0.000593624 0.00163622 1
0.244521 8.76941e-06 0.999858
0.627476 0 0.998981
0.992779 0 0.961208
1 0 0.64507
1 0 0.351552
0 0.107861 0.999811
0 0.107276 0.999812
0 0.103646 0.999819
4.74431e-06 0.0934074 0.999839
0.211278 0.0624918 0.999642
0.613758 0.00489563 0.998939
0.991811 0 0.962498
1 0 0.645558
1 0 0.351258
0 0.285855 0.998947
0 0.285555 0.998948
0 0.283694 0.998954
0 0.278596 0.998971
0.101732 0.263426 0.998892
0.565928 0.214295 0.997927
0.986626 0.0485725 0.964641
1 0 0.646928
1 0 0.350443
0 0.548816 0.98999
0 0.548661 0.989997
0 0.547702 0.990042
0 0.545087 0.990166
0.00016486 0.53778 0.990507
0.420622 0.509947 0.987586
0.952547 0.412889 0.954418
1 0.0831673 0.646754
1 0 0.348164
0 0.883262 0.913257
0 0.883218 0.913278
0 0.882938 0.913411
0 0.882175 0.91377
0 0.88003 0.914745
0.0167858 0.873658 0.917215
0.767324 0.825913 0.897888
1 0.495052 0.623044
1 0.0988563 0.338828
0 0.987436 0.561199
0 0.987433 0.561209
0 0.987412 0.561272
0 0.987357 0.561442
0 0.987204 0.561915
0 0.986773 0.563226
0.058511 0.984696 0.566042
0.895673 0.931524 0.531148
1 0.528554 0.297304
0 1 0.197837
0 1 0.197831
0 1 0.197797
0 1 0.197702
0 1 0.197442
0 1 0.196722
0 1 0.19471
0.0724482 0.999997 0.188401
0.936798 0.967501 0.15044
0 0 1
0 0 1
0 0 1
0 0 1
0.00432175 0 1
0.318377 0 1
0.737918 0 1
0.999893 0 0.992942
1 0 0.684882
0 0 1
0 0 1
0 0 1
0 0 1
0.0041109 0 1
0.317743 0 1
0.737647 0 1
0.999892 0 0.992949
1 0 0.684892
0 2.12247e-06 1
0 1.61395e-06 1
0 0 1
0 0 1
0.00296645 0 1
0.313359 0 1
0.735782 0 1
0.999883 0 0.993004
1 0 0.684959
0 0.0198911 1
0 0.019623 1
0 0.0180059 1
0 0.0139449 1
0.000992243 0.00563611 1
0.301177 7.33011e-05 1
0.730674 0 1
0.999855 0 0.993153
1 0 0.685143
0 0.149193 1
0 0.148963 1
0 0.147542 1
0 0.143623 1
2.01551e-05 0.132415 1
0.262894 0.0968294 1
0.715589 0.0106525 1
0.99977 0 0.993568
1 0 0.68565
0 0.346064 1
0 0.345943 1
0 0.3452 1
0 0.343172 1
0 0.337515 1
0.135641 0.32027 1
0.659035 0.263205 1
0.999422 0.0659338 0.994492
1 0 0.687072
0 0.633785 1
0 0.633725 1
0 0.633359 1
0 0.632362 1
0 0.629595 1
0.000147011 0.621856 1
0.489807 0.589008 1
0.991601 0.473325 0.992652
1 0.0929729 0.686615
0 0.955125 0.976254
0 0.955113 0.97626
0 0.955035 0.976301
0 0.954821 0.976411
0 0.954231 0.976716
0 0.952586 0.977561
0.0212804 0.94759 0.979736
0.841989 0.901181 0.96512
1 0.526566 0.660356
0 1 0.595111
0 1 0.595116
0 1 0.595141
0 1 0.59521
0 1 0.595401
0 1 0.59593
0 1 0.597403
0.0606757 0.999982 0.600621
0.929001 0.966325 0.563919
0 0 1
0 0 1
0 0 1
0 0 1
0 0 1
0.00613581 0 1
0.345692 0 1
0.783009 0 1
1 0 0.999148
0 0 1
0 0 1
0 0 1
0 0 1
0 0 1
0.0060303 0 1
0.345451 0 1
0.78291 0 1
1 0 0.999148
0 0 1
0 0 1
0 0 1
0 0 1
0 0 1
0.0053062 0 1
0.343794 0 1
0.782229 0 1
1 0 0.999148
0 1.57305e-05 1
0 1.51393e-05 1
0 1.10164e-05 1
0 2.60635e-06 1
0 7.27386e-08 1
0.00369983 0 1
0.33926 0 1
0.780377 0 1
1 0 0.99915
0 0.0286484 1
0 0.0285253 1
0 0.0277705 1
0 0.025768 1
0 0.0205096 1
0.00126654 0.00903264 1
0.32645 0.000125805 1
0.775213 0 1
1 0 0.999155
0 0.167284 1
0 0.167198 1
0 0.166666 1
0 0.165213 1
0 0.161143 1
8.93114e-06 0.149525 1
0.286068 0.112401 1
0.759815 0.0131877 1
1 0 0.999167
0 0.372857 1
0 0.372811 1
0 0.372529 1
0 0.371763 1
0 0.36964 1
0 0.363719 1
0.150692 0.345543 1
0.700741 0.285241 1
0.999994 0.0740468 0.999167
0 0.673445 1
0 0.673423 1
0 0.673285 1
0 0.672911 1
0 0.671876 1
0 0.669006 1
0.000279241 0.660989 1
0.521926 0.626235 1
0.997992 0.504301 0.998454
0 0.982138 0.990287
0 0.982135 0.990289
0 0.982118 0.990298
0 0.982072 0.990324
0 0.981945 0.990396
0 0.981594 0.990595
0 0.980481 0.991146
0.0214075 0.976722 0.992658
0.879408 0.937381 0.987163
