MONITOR LUTS/APPLE LOG_COOL_-1.cube
# Generated by CineMatch
# Date: 24/10/123
# Time: 17:20:13
TITLE "APPLE LOG_COOL_-1.cube"
LUT_3D_SIZE 5
0 0 0
0.088862 0 0
0.510848 0 0
1 0 0
1 0 0
0 0.0598596 0
0.0506598 0.0517424 0
0.498754 0.00330266 0
1 0 0
1 0 0
0 0.41813 0
0 0.415294 0
0.377536 0.389662 0
0.99928 0.0684477 0
1 0 0
0 0.917567 0
0 0.917406 0
0 0.915994 0
0.831981 0.855836 0
1 0.102216 0
0 1 0
0 1 0
0 1 0
0 1 0
0.940052 0.967043 0
0 0 0.0707129
0.0835118 0 0.0695491
0.509129 0 0.0591999
1 0 0.00162719
1 0 0
0 0.0592003 0.063911
0.0453168 0.0510767 0.0627261
0.497001 0.00316386 0.0523073
1 0 0.00109457
1 0 0
0 0.417899 0.011894
0 0.415063 0.0112815
0.375332 0.389419 0.00681584
0.999273 0.0682421 4.63435e-06
1 0 0
0 0.917554 0
0 0.917393 0
0 0.915981 0
0.831636 0.855923 0
1 0.10218 0
0 1 0
0 1 0
0 1 0
0 1 0
0.940017 0.967056 0
0 0 0.459121
0.0346075 0 0.458734
0.493316 0 0.455354
0.999992 0 0.278035
1 0 0.00930317
0 0.0532466 0.456878
0.00986163 0.0450635 0.456492
0.480863 0.00205663 0.453098
0.999953 0 0.277003
1 0 0.00897489
0 0.415814 0.43655
0 0.412963 0.436148
0.354868 0.38721 0.432627
0.999108 0.0661199 0.265801
1 0 0.00635871
0 0.91677 0.145215
0 0.91661 0.144901
0 0.915203 0.142101
0.827965 0.856172 0.106061
1 0.101852 4.2323e-05
0 1 0
0 1 0
0 1 0
0 1 0
0.939701 0.967176 0
0 0 1
0 0 1
0.257071 0 0.999861
0.993165 0 0.960637
1 0 0.351676
0 0.00693664 1
0 0.00478747 1
0.244521 8.76941e-06 0.999858
0.992779 0 0.961208
1 0 0.351552
0 0.285855 0.998947
0 0.283694 0.998954
0.101732 0.263426 0.998892
0.986626 0.0485725 0.964641
1 0 0.350443
0 0.883262 0.913257
0 0.882938 0.913411
0 0.88003 0.914745
0.767324 0.825913 0.897888
1 0.0988563 0.338828
0 1 0.197837
0 1 0.197797
0 1 0.197442
0 1 0.19471
0.936798 0.967501 0.15044
0 0 1
0 0 1
0 0 1
0.345692 0 1
1 0 0.999148
0 0 1
0 0 1
0 0 1
0.343794 0 1
1 0 0.999148
0 0.0286484 1
0 0.0277705 1
0 0.0205096 1
0.32645 0.000125805 1
1 0 0.999155
0 0.372857 1
0 0.372529 1
0 0.36964 1
0.150692 0.345543 1
0.999994 0.0740468 0.999167
0 0.982138 0.990287
0 0.982118 0.990298
0 0.981945 0.990396
0 0.980481 0.991146
0.879408 0.937381 0.987163
